; generated by PrusaSlicer 2.7.1+win64 on 2025-05-05 at 18:37:02 UTC


;
;
; 

; external perimeters extrusion width = 0.65mm
; perimeters extrusion width = 0.65mm
; infill extrusion width = 0.65mm
; solid infill extrusion width = 0.65mm
; top infill extrusion width = 0.60mm
; support material extrusion width = 0.55mm
; first layer extrusion width = 0.65mm

M73 P0 R93
M73 Q0 S93
M201 X1000 Y1000 Z200 E5000 ; sets maximum accelerations, mm/sec^2
M203 X200 Y200 Z12 E120 ; sets maximum feedrates, mm / sec
M204 S1250 T1250 ; sets acceleration (S) and retract acceleration (R), mm/sec^2
M205 X8.00 Y8.00 Z0.40 E4.50 ; sets the jerk limits, mm/sec
M205 S0 T0 ; sets the minimum extruding and travel feed rate, mm/sec

; printing object draaiknop.stl id:0 copy 0
; stop printing object draaiknop.stl id:0 copy 0

;TYPE:Custom
M862.3 P "MK3S" ; printer model check
M862.1 P0.6 ; nozzle diameter check
M115 U3.13.0 ; tell printer latest fw version
G90 ; use absolute coordinates
M83 ; extruder relative mode
M104 S215 ; set extruder temp
M140 S60 ; set bed temp
M190 S60 ; wait for bed temp
M109 S215 ; wait for extruder temp
G28 W ; home all without mesh bed level
G80 ; mesh bed leveling

G1 Z0.2 F720
G1 Y-3 F1000 ; go outside print area
G92 E0
G1 X60 E9 F1000 ; intro line
G1 X100 E12.5 F1000 ; intro line

G92 E0
M221 S95
G21 ; set units to millimeters
G90 ; use absolute coordinates
M83 ; use relative distances for extrusion
M900 K0.04 ; Filament gcode LA 1.5
M900 K18 ; Filament gcode LA 1.0
M107
;LAYER_CHANGE
;Z:0.2
;HEIGHT:0.2
;BEFORE_LAYER_CHANGE
G92 E0.0
;0.2


G1 E-.8 F2100
G1 Z.2 F720
;AFTER_LAYER_CHANGE
;0.2
G1 X84.57 Y71.869 F10800
G1 Z.2 F720
G1 E.8 F1500
M204 S800
;TYPE:Skirt/Brim
;WIDTH:0.65
G1 F1200
G1 X87.293 Y68.796 E.20726
G1 X89.929 Y66.24 E.18535
G1 X93.382 Y63.376 E.22646
G1 X97.208 Y60.731 E.23479
G1 X101.075 Y58.526 E.22471
G1 X105.216 Y56.619 E.23013
G1 X109.067 Y55.217 E.20688
G1 X113.225 Y54.077 E.21764
G1 X117.591 Y53.261 E.22421
G1 X122.13 Y52.808 E.23026
G1 X126.552 Y52.752 E.22324
G1 X131.175 Y53.097 E.23401
G1 X135.549 Y53.807 E.22368
G1 X139.864 Y54.888 E.22455
G1 X144.178 Y56.375 E.23034
G1 X148.129 Y58.124 E.21811
G1 X152.097 Y60.305 E.22856
G1 X155.792 Y62.765 E.22408
G1 X159.174 Y65.445 E.21782
G1 X162.053 Y68.127 E.19862
G1 X165.028 Y71.382 E.2226
G1 X167.787 Y74.976 E.22871
G1 X170.129 Y78.622 E.21874
G1 X172.069 Y82.262 E.20821
G1 X173.83 Y86.34 E.22423
G1 X175.264 Y90.64 E.22881
G1 X176.34 Y95.159 E.23449
G1 X176.993 Y99.56 E.22459
G1 X177.261 Y103.705 E.20967
G1 X177.275 Y105.265 E.07875
G1 X177.082 Y109.532 E.21561
G1 X176.565 Y113.596 E.2068
G1 X175.65 Y117.942 E.22419
G1 X174.333 Y122.309 E.23025
G1 X172.597 Y126.633 E.2352
G1 X170.599 Y130.576 E.22313
G1 X168.206 Y134.435 E.22921
G1 X165.548 Y138.003 E.22459
G1 X162.825 Y141.097 E.20805
G1 X159.722 Y144.089 E.21759
G1 X156.209 Y146.947 E.2286
G1 X152.355 Y149.557 E.23496
G1 X148.466 Y151.724 E.22473
G1 X144.307 Y153.59 E.2301
G1 X140.24 Y155.015 E.21753
G1 X136.274 Y156.053 E.20694
G1 X131.899 Y156.826 E.22427
G1 X127.356 Y157.234 E.23025
G1 X122.934 Y157.246 E.22322
G1 X118.314 Y156.856 E.23404
G1 X113.945 Y156.103 E.22379
G1 X109.639 Y154.979 E.22465
G1 X105.342 Y153.449 E.23025
G1 X101.314 Y151.611 E.2235
G1 X97.557 Y149.502 E.21749
G1 X94.143 Y147.205 E.20771
G1 X90.58 Y144.357 E.23025
G1 X87.226 Y141.15 E.23425
G1 X84.309 Y137.829 E.22313
G1 X81.619 Y134.176 E.229
G1 X79.348 Y130.481 E.21893
G1 X77.483 Y126.804 E.20812
G1 X75.806 Y122.695 E.22403
G1 X74.459 Y118.369 E.22871
G1 X73.472 Y113.824 E.23477
G1 X72.907 Y109.408 E.22473
G1 X72.724 Y104.609 E.24242
G1 X72.915 Y100.515 E.20689
G1 X73.466 Y96.238 E.21768
G1 X74.397 Y91.894 E.22426
G1 X75.729 Y87.531 E.23027
G1 X77.39 Y83.412 E.22419
G1 X79.492 Y79.279 E.23406
G1 X81.9 Y75.428 E.22927
G1 X84.516 Y71.941 E.22005
M204 S1000
;WIPE_START
G1 F8640
G1 X84.57 Y71.869 E-.02078
G1 X86.808 Y69.344 E-.77922
;WIPE_END
G1 Z.6 F720
G1 X86.834 Y73.923 F10800
G1 Z.2 F720
G1 E.8 F1500
M204 S800
G1 F1200
G1 X89.638 Y70.764 E.21322
G1 X92.184 Y68.319 E.17818
G1 X95.225 Y65.812 E.19895
G1 X98.654 Y63.43 E.21076
G1 X102.381 Y61.289 E.21697
G1 X106.28 Y59.482 E.21693
G1 X110.091 Y58.096 E.2047
G1 X114.007 Y57.029 E.20488
G1 X118.12 Y56.269 E.21113
G1 X122.398 Y55.852 E.21697
G1 X126.672 Y55.812 E.21576
G1 X130.817 Y56.13 E.20985
G1 X134.94 Y56.8 E.21085
M73 P0 R92
G1 X139 Y57.818 E.21129
G1 X142.968 Y59.179 E.21175
G1 X146.78 Y60.864 E.21039
G1 X150.432 Y62.865 E.21021
G1 X153.914 Y65.173 E.21087
G1 X157.035 Y67.635 E.20066
G1 X159.887 Y70.281 E.19638
G1 X162.623 Y73.267 E.20444
G1 X165.108 Y76.475 E.20484
G1 X167.386 Y79.982 E.2111
G1 X169.363 Y83.678 E.21158
G1 X171.014 Y87.521 E.21113
G1 X172.354 Y91.574 E.21548
G1 X173.342 Y95.742 E.21623
G1 X173.956 Y99.883 E.21132
G1 X174.21 Y103.822 E.19925
G1 X174.224 Y105.147 E.06689
G1 X174.046 Y109.189 E.20423
G1 X173.538 Y113.19 E.20359
G1 X172.668 Y117.281 E.21113
G1 X171.453 Y121.292 E.21156
G1 X169.904 Y125.177 E.21112
G1 X167.997 Y128.971 E.21435
G1 X165.782 Y132.571 E.21337
G1 X163.26 Y135.978 E.21397
G1 X160.468 Y139.142 E.21301
G1 X157.542 Y141.941 E.2044
G1 X154.391 Y144.493 E.20468
G1 X150.936 Y146.843 E.21092
G1 X147.236 Y148.924 E.21429
G1 X143.375 Y150.675 E.214
G1 X139.424 Y152.071 E.21153
G1 X135.368 Y153.126 E.21156
G1 X131.321 Y153.824 E.2073
G1 X127.224 Y154.183 E.2076
G1 X123.063 Y154.195 E.21004
G1 X118.835 Y153.844 E.21416
G1 X114.661 Y153.133 E.21373
G1 X110.558 Y152.066 E.214
G1 X106.58 Y150.657 E.21303
G1 X102.785 Y148.934 E.21039
G1 X99.248 Y146.957 E.20454
G1 X95.865 Y144.682 E.20579
G1 X92.535 Y142.009 E.21555
G1 X89.429 Y139.035 E.21707
G1 X86.75 Y135.99 E.20473
G1 X84.327 Y132.732 E.20496
G1 X82.119 Y129.176 E.21129
G1 X80.217 Y125.442 E.21153
G1 X78.646 Y121.572 E.21084
G1 X77.386 Y117.489 E.2157
G1 X76.481 Y113.301 E.21629
G1 X75.95 Y109.134 E.21205
G1 X75.775 Y104.726 E.22269
G1 X75.967 Y100.679 E.20452
G1 X76.492 Y96.654 E.2049
G1 X77.376 Y92.566 E.21113
G1 X78.607 Y88.554 E.21184
G1 X80.168 Y84.681 E.21079
G1 X82.076 Y80.916 E.21306
G1 X84.302 Y77.322 E.2134
G1 X86.78 Y73.995 E.20941
M204 S1000
G1 X87.266 Y74.357 F10800
M204 S800
G1 F1200
G1 X87.296 Y74.316 E.00256
G1 X90.067 Y71.193 E.21076
G1 X92.579 Y68.78 E.17583
G1 X95.602 Y66.288 E.19776
G1 X98.99 Y63.936 E.20819
G1 X102.671 Y61.822 E.21428
G1 X106.499 Y60.048 E.21297
G1 X110.263 Y58.679 E.20218
G1 X114.155 Y57.618 E.20363
G1 X118.218 Y56.868 E.20856
G1 X122.418 Y56.459 E.21301
G1 X126.639 Y56.418 E.21308
G1 X130.732 Y56.731 E.20721
G1 X134.805 Y57.392 E.20829
G1 X138.815 Y58.396 E.20867
G1 X142.734 Y59.74 E.20914
G1 X146.499 Y61.403 E.20777
G1 X150.107 Y63.378 E.20763
G1 X153.548 Y65.657 E.20834
G1 X156.65 Y68.104 E.19944
G1 X159.448 Y70.7 E.19267
G1 X162.167 Y73.667 E.20315
G1 X164.621 Y76.836 E.20232
G1 X166.87 Y80.302 E.20856
G1 X168.822 Y83.953 E.20899
G1 X170.451 Y87.748 E.20847
G1 X171.774 Y91.752 E.21286
G1 X172.744 Y95.844 E.21228
G1 X173.351 Y99.935 E.20877
G1 X173.603 Y103.853 E.19818
G1 X173.617 Y105.129 E.06441
G1 X173.442 Y109.125 E.20191
G1 X172.937 Y113.101 E.20232
G1 X172.077 Y117.142 E.20855
G1 X170.876 Y121.104 E.20898
G1 X169.345 Y124.939 E.20844
G1 X167.473 Y128.664 E.21044
G1 X165.286 Y132.22 E.21073
G1 X162.796 Y135.586 E.21135
G1 X160.039 Y138.712 E.2104
G1 X157.131 Y141.494 E.20315
G1 X154.019 Y144.013 E.2021
G1 X150.605 Y146.334 E.20839
G1 X146.973 Y148.376 E.21033
G1 X143.16 Y150.107 E.21138
G1 X139.234 Y151.494 E.21018
G1 X135.252 Y152.53 E.2077
G1 X131.256 Y153.22 E.2047
G1 X127.184 Y153.577 E.20634
G1 X123.074 Y153.588 E.20747
G1 X118.924 Y153.243 E.21021
G1 X114.801 Y152.542 E.21111
G1 X110.748 Y151.489 E.21138
G1 X106.818 Y150.099 E.21042
G1 X103.07 Y148.398 E.20777
G1 X99.556 Y146.433 E.20323
G1 X96.215 Y144.186 E.20324
G1 X92.925 Y141.544 E.213
G1 X89.876 Y138.624 E.21311
G1 X87.23 Y135.618 E.20215
G1 X84.822 Y132.38 E.20369
G1 X82.641 Y128.867 E.20873
G1 X80.764 Y125.179 E.20889
G1 X79.213 Y121.356 E.20826
G1 X77.97 Y117.323 E.21303
G1 X77.082 Y113.211 E.21235
G1 X76.556 Y109.097 E.20936
G1 X76.382 Y104.742 E.22001
G1 X76.573 Y100.721 E.2032
G1 X77.092 Y96.745 E.20241
G1 X77.966 Y92.707 E.20855
G1 X79.183 Y88.745 E.20922
G1 X80.726 Y84.92 E.2082
G1 X82.611 Y81.202 E.21042
G1 X84.811 Y77.653 E.21078
G1 X87.212 Y74.429 E.20292
M204 S1000
G1 X87.698 Y74.791 F10800
M204 S800
G1 F1200
G1 X87.759 Y74.709 E.00516
G1 X90.497 Y71.622 E.20829
G1 X92.974 Y69.241 E.17344
G1 X95.978 Y66.765 E.19651
G1 X99.325 Y64.442 E.20566
G1 X102.939 Y62.367 E.21036
G1 X106.719 Y60.614 E.21033
G1 X110.459 Y59.254 E.20089
G1 X114.302 Y58.207 E.20106
G1 X118.315 Y57.467 E.20599
M73 P1 R92
M73 Q1 S92
G1 X122.437 Y57.066 E.20906
G1 X126.606 Y57.024 E.21046
G1 X130.648 Y57.333 E.20463
G1 X134.67 Y57.984 E.20567
G1 X138.631 Y58.975 E.20611
G1 X142.501 Y60.301 E.2065
G1 X146.22 Y61.942 E.20519
G1 X149.783 Y63.891 E.20501
G1 X153.182 Y66.142 E.20579
G1 X156.264 Y68.573 E.19815
G1 X159.008 Y71.119 E.18895
G1 X161.694 Y74.049 E.20065
G1 X164.133 Y77.198 E.20106
G1 X166.353 Y80.621 E.20595
G1 X168.28 Y84.228 E.20643
G1 X169.888 Y87.975 E.20583
G1 X171.186 Y91.905 E.20892
G1 X172.145 Y95.946 E.20965
G1 X172.746 Y99.987 E.20623
G1 X173.01 Y105.111 E.259
G1 X172.836 Y109.086 E.20085
G1 X172.336 Y113.012 E.19978
G1 X171.486 Y117.003 E.20598
G1 X170.299 Y120.915 E.20636
G1 X168.786 Y124.702 E.20586
G1 X166.936 Y128.379 E.20778
G1 X164.776 Y131.891 E.20813
G1 X162.332 Y135.194 E.20741
G1 X159.61 Y138.283 E.20783
G1 X156.74 Y141.03 E.20054
G1 X153.647 Y143.533 E.20085
G1 X150.275 Y145.825 E.20581
G1 X146.687 Y147.841 E.20775
G1 X142.946 Y149.539 E.20738
G1 X139.044 Y150.918 E.20891
G1 X135.137 Y151.934 E.20378
G1 X131.19 Y152.616 E.20219
G1 X127.144 Y152.971 E.20502
G1 X123.086 Y152.981 E.20484
G1 X118.987 Y152.639 E.20763
G1 X114.916 Y151.945 E.20846
G1 X110.938 Y150.912 E.20746
G1 X107.057 Y149.54 E.20779
G1 X103.355 Y147.862 E.20517
G1 X99.884 Y145.923 E.2007
G1 X96.564 Y143.689 E.202
G1 X93.316 Y141.079 E.21033
G1 X90.323 Y138.213 E.20918
G1 X87.694 Y135.226 E.20086
G1 X85.317 Y132.028 E.20114
G1 X83.164 Y128.558 E.20614
G1 X81.311 Y124.915 E.20632
G1 X79.781 Y121.14 E.20561
G1 X78.56 Y117.182 E.20909
G1 X77.682 Y113.121 E.20973
G1 X77.162 Y109.059 E.20672
G1 X76.989 Y104.757 E.21734
G1 X77.176 Y100.787 E.20062
G1 X77.692 Y96.837 E.20109
G1 X78.557 Y92.848 E.20604
G1 X79.76 Y88.936 E.2066
G1 X81.284 Y85.159 E.20559
G1 X83.147 Y81.488 E.20781
G1 X85.306 Y78.005 E.20686
G1 X87.645 Y74.863 E.19773
M204 S1000
G1 X88.131 Y75.226 F10800
M204 S800
G1 F1200
G1 X88.238 Y75.082 E.00906
G1 X90.927 Y72.051 E.20453
G1 X93.369 Y69.702 E.17104
G1 X96.354 Y67.241 E.19529
G1 X99.66 Y64.949 E.20307
G1 X103.206 Y62.912 E.20643
G1 X106.939 Y61.18 E.20773
G1 X110.654 Y59.828 E.19956
G1 X114.449 Y58.796 E.19852
G1 X118.412 Y58.067 E.2034
G1 X122.482 Y57.672 E.20641
G1 X126.573 Y57.631 E.20652
G1 X130.564 Y57.934 E.20204
G1 X134.535 Y58.576 E.20305
G1 X138.446 Y59.553 E.20349
G1 X142.268 Y60.861 E.20392
G1 X145.94 Y62.481 E.2026
G1 X149.459 Y64.404 E.20243
G1 X152.815 Y66.626 E.20317
G1 X155.879 Y69.043 E.197
G1 X158.569 Y71.538 E.1852
G1 X161.238 Y74.45 E.1994
G1 X163.645 Y77.56 E.19852
G1 X165.837 Y80.941 E.2034
G1 X167.738 Y84.502 E.20377
G1 X169.325 Y88.202 E.20323
G1 X170.606 Y92.082 E.20626
G1 X171.546 Y96.048 E.20575
G1 X172.141 Y100.038 E.20364
G1 X172.403 Y105.093 E.25551
G1 X172.232 Y109.022 E.19852
G1 X171.736 Y112.923 E.1985
G1 X170.895 Y116.863 E.20337
G1 X169.722 Y120.726 E.20379
G1 X168.227 Y124.464 E.20322
G1 X166.4 Y128.095 E.20518
G1 X164.28 Y131.54 E.20419
G1 X161.868 Y134.803 E.20483
G1 X159.181 Y137.853 E.20519
G1 X156.329 Y140.583 E.19929
G1 X153.275 Y143.053 E.19827
G1 X149.945 Y145.315 E.20321
G1 X146.402 Y147.305 E.20513
G1 X142.707 Y148.981 E.20481
G1 X138.854 Y150.341 E.20626
G1 X135.021 Y151.338 E.19992
G1 X131.124 Y152.013 E.19965
G1 X127.104 Y152.365 E.2037
G1 X123.097 Y152.374 E.20227
G1 X119.051 Y152.035 E.20495
G1 X115.056 Y151.355 E.20456
G1 X111.128 Y150.335 E.20486
G1 X107.296 Y148.982 E.20514
G1 X103.64 Y147.326 E.2026
G1 X100.191 Y145.399 E.19943
G1 X96.914 Y143.193 E.19941
G1 X93.726 Y140.631 E.20645
G1 X90.77 Y137.802 E.20654
G1 X88.173 Y134.854 E.19832
G1 X85.812 Y131.676 E.19985
G1 X83.687 Y128.249 E.20355
G1 X81.858 Y124.652 E.2037
G1 X80.348 Y120.924 E.20304
G1 X79.144 Y117.015 E.20647
G1 X78.283 Y113.031 E.20575
G1 X77.768 Y109.022 E.20403
G1 X77.596 Y104.772 E.21471
G1 X77.782 Y100.828 E.19931
G1 X78.293 Y96.928 E.19855
G1 X79.147 Y92.99 E.20341
G1 X80.336 Y89.127 E.20403
G1 X81.842 Y85.399 E.20296
G1 X83.682 Y81.775 E.20516
G1 X85.815 Y78.336 E.20428
G1 X88.078 Y75.298 E.19123
M204 S1000
G1 X88.564 Y75.66 F10800
M204 S800
G1 F1200
G1 X88.701 Y75.475 E.01162
G1 X91.356 Y72.48 E.20204
G1 X93.764 Y70.163 E.16869
G1 X96.731 Y67.718 E.19407
G1 X99.995 Y65.455 E.20049
G1 X103.497 Y63.446 E.2038
G1 X107.159 Y61.746 E.2038
G1 X110.826 Y60.411 E.19699
G1 X114.596 Y59.385 E.19723
G1 X118.509 Y58.666 E.20083
M73 P1 R91
G1 X122.502 Y58.279 E.20251
G1 X126.54 Y58.237 E.20384
G1 X130.48 Y58.535 E.19945
G1 X134.401 Y59.168 E.20049
G1 X138.262 Y60.132 E.20088
G1 X142.035 Y61.422 E.20128
G1 X145.66 Y63.02 E.19998
G1 X149.134 Y64.918 E.19983
G1 X152.449 Y67.111 E.20064
G1 X155.493 Y69.512 E.1957
G1 X158.13 Y71.958 E.18156
G1 X160.766 Y74.832 E.19686
G1 X163.157 Y77.921 E.19718
G1 X165.32 Y81.26 E.20082
G1 X167.197 Y84.776 E.20119
G1 X168.761 Y88.429 E.20059
G1 X170.018 Y92.235 E.20233
G1 X170.948 Y96.15 E.20312
G1 X171.536 Y100.09 E.20109
G1 X171.796 Y105.075 E.25198
G1 X171.629 Y108.958 E.19619
G1 X171.135 Y112.833 E.19719
G1 X170.304 Y116.724 E.20084
G1 X169.145 Y120.537 E.20117
G1 X167.668 Y124.227 E.20063
G1 X165.864 Y127.81 E.2025
G1 X163.77 Y131.211 E.20161
G1 X161.388 Y134.431 E.20218
G1 X158.752 Y137.423 E.20129
G1 X155.937 Y140.119 E.19676
G1 X152.903 Y142.573 E.19698
G1 X149.614 Y144.806 E.20067
G1 X146.116 Y146.769 E.20248
G1 X142.468 Y148.422 E.20217
G1 X138.688 Y149.757 E.20236
G1 X134.904 Y150.742 E.19738
G1 X131.033 Y151.412 E.19831
G1 X127.064 Y151.759 E.20111
G1 X123.109 Y151.766 E.19964
G1 X119.115 Y151.431 E.20232
G1 X115.171 Y150.758 E.20197
G1 X111.293 Y149.751 E.20225
G1 X107.534 Y148.423 E.20124
G1 X103.925 Y146.789 E.19998
G1 X100.52 Y144.888 E.19685
G1 X97.263 Y142.696 E.19818
G1 X94.136 Y140.183 E.2025
G1 X91.217 Y137.391 E.2039
G1 X88.637 Y134.462 E.19703
G1 X86.307 Y131.324 E.19729
G1 X84.209 Y127.94 E.20099
G1 X82.405 Y124.388 E.2011
G1 X80.916 Y120.708 E.20039
G1 X79.735 Y116.874 E.20251
G1 X78.883 Y112.941 E.20314
G1 X78.374 Y108.984 E.20139
G1 X78.203 Y104.787 E.21204
G1 X78.386 Y100.894 E.19673
G1 X78.893 Y97.019 E.19727
G1 X79.738 Y93.131 E.20084
G1 X80.912 Y89.318 E.20139
G1 X82.4 Y85.639 E.20033
G1 X84.218 Y82.061 E.20259
G1 X86.324 Y78.667 E.20163
G1 X88.51 Y75.732 E.18473
M204 S1000
G1 X88.996 Y76.094 F10800
M204 S800
G1 F1200
G1 X89.164 Y75.868 E.01421
G1 X91.786 Y72.909 E.19957
G1 X94.159 Y70.624 E.16629
G1 X97.107 Y68.194 E.19285
G1 X100.33 Y65.961 E.19793
G1 X103.765 Y63.991 E.19989
G1 X107.379 Y62.312 E.20116
G1 X110.998 Y60.993 E.19444
G1 X114.743 Y59.975 E.1959
G1 X118.606 Y59.266 E.19826
G1 X122.547 Y58.884 E.19987
G1 X126.507 Y58.843 E.19991
G1 X130.396 Y59.137 E.19687
G1 X134.266 Y59.76 E.19787
G1 X138.078 Y60.71 E.19831
G1 X141.803 Y61.983 E.19871
G1 X145.381 Y63.559 E.19736
G1 X148.81 Y65.431 E.19721
G1 X152.083 Y67.595 E.19806
G1 X155.108 Y69.981 E.19448
G1 X157.691 Y72.377 E.17785
G1 X160.31 Y75.233 E.19561
G1 X162.669 Y78.282 E.1946
G1 X164.804 Y81.579 E.19828
G1 X166.655 Y85.05 E.19857
G1 X168.198 Y88.656 E.19799
G1 X169.437 Y92.413 E.1997
G1 X170.349 Y96.253 E.19923
G1 X170.931 Y100.142 E.1985
G1 X171.189 Y105.057 E.24845
G1 X171.023 Y108.919 E.19513
G1 X170.535 Y112.744 E.19465
G1 X169.713 Y116.584 E.19823
G1 X168.568 Y120.348 E.1986
G1 X167.109 Y123.989 E.198
G1 X165.34 Y127.503 E.19859
G1 X163.274 Y130.861 E.19902
G1 X160.923 Y134.04 E.19959
G1 X158.323 Y136.994 E.19865
G1 X155.527 Y139.671 E.1954
G1 X152.531 Y142.093 E.19447
G1 X149.284 Y144.296 E.19807
G1 X145.83 Y146.233 E.1999
