; generated by PrusaSlicer 2.7.1+win64 on 2025-05-08 at 09:55:27 UTC


;
;
; 

; external perimeters extrusion width = 0.65mm
; perimeters extrusion width = 0.65mm
; infill extrusion width = 0.65mm
; solid infill extrusion width = 0.65mm
; top infill extrusion width = 0.60mm
; support material extrusion width = 0.55mm
; first layer extrusion width = 0.65mm

M73 P0 R60
M73 Q0 S61
M201 X1000 Y1000 Z200 E5000 ; sets maximum accelerations, mm/sec^2
M203 X200 Y200 Z12 E120 ; sets maximum feedrates, mm / sec
M204 S1250 T1250 ; sets acceleration (S) and retract acceleration (R), mm/sec^2
M205 X8.00 Y8.00 Z0.40 E4.50 ; sets the jerk limits, mm/sec
M205 S0 T0 ; sets the minimum extruding and travel feed rate, mm/sec

; printing object lamphanger.stl id:0 copy 0
; stop printing object lamphanger.stl id:0 copy 0

;TYPE:Custom
M862.3 P "MK3S" ; printer model check
M862.1 P0.6 ; nozzle diameter check
M115 U3.13.0 ; tell printer latest fw version
G90 ; use absolute coordinates
M83 ; extruder relative mode
M104 S215 ; set extruder temp
M140 S60 ; set bed temp
M190 S60 ; wait for bed temp
M109 S215 ; wait for extruder temp
G28 W ; home all without mesh bed level
G80 ; mesh bed leveling

G1 Z0.2 F720
G1 Y-3 F1000 ; go outside print area
G92 E0
G1 X60 E9 F1000 ; intro line
G1 X100 E12.5 F1000 ; intro line

G92 E0
M221 S95
G21 ; set units to millimeters
G90 ; use absolute coordinates
M83 ; use relative distances for extrusion
M900 K0.04 ; Filament gcode LA 1.5
M900 K18 ; Filament gcode LA 1.0
M107
;LAYER_CHANGE
;Z:0.2
;HEIGHT:0.2
;BEFORE_LAYER_CHANGE
G92 E0.0
;0.2


G1 E-.8 F2100
G1 Z.2 F720
;AFTER_LAYER_CHANGE
;0.2
G1 X85.458 Y71.824 F10800
G1 Z.2 F720
G1 E.8 F1500
M204 S800
;TYPE:Skirt/Brim
;WIDTH:0.65
G1 F1200
G1 X88.414 Y68.588 E.22124
G1 X91.238 Y65.956 E.19487
G1 X94.597 Y63.292 E.21641
G1 X98.271 Y60.847 E.22277
G1 X102.22 Y58.682 E.22733
G1 X106.151 Y56.949 E.21686
G1 X110.445 Y55.479 E.22911
G1 X114.951 Y54.373 E.23421
G1 X119.304 Y53.699 E.22235
G1 X123.359 Y53.41 E.20521
G1 X124.826 Y53.414 E.07405
G1 X128.087 Y53.475 E.16464
G1 X132.164 Y53.886 E.20685
G1 X136.508 Y54.686 E.22297
G1 X140.853 Y55.878 E.22743
G1 X144.981 Y57.406 E.22219
G1 X149.176 Y59.396 E.23438
G1 X153.084 Y61.697 E.22893
G1 X156.677 Y64.25 E.22249
G1 X159.762 Y66.844 E.20346
G1 X161.932 Y68.94 E.15229
G1 X164.901 Y72.257 E.22472
G1 X167.68 Y75.974 E.23427
G1 X170.001 Y79.72 E.22245
G1 X172.035 Y83.744 E.2276
G1 X173.679 Y87.843 E.22293
G1 X174.887 Y91.758 E.20682
G1 X175.815 Y95.964 E.21742
G1 X176.413 Y100.434 E.22765
G1 X176.617 Y104.91 E.22618
G1 X176.433 Y109.334 E.22351
G1 X175.834 Y113.939 E.23441
G1 X174.886 Y118.246 E.22262
G1 X173.539 Y122.548 E.22756
G1 X171.863 Y126.63 E.22275
G1 X170 Y130.278 E.20677
G1 X167.732 Y133.943 E.21756
G1 X165.043 Y137.566 E.22775
G1 X162.129 Y140.856 E.22185
G1 X158.774 Y144.03 E.23314
G1 X155.215 Y146.842 E.22896
G1 X151.811 Y149.103 E.20628
G1 X148.063 Y151.173 E.21613
G1 X144.041 Y152.973 E.22243
G1 X139.754 Y154.46 E.22905
G1 X135.464 Y155.541 E.22332
M73 Q0 S60
G1 X131.116 Y156.25 E.22238
G1 X126.516 Y156.593 E.23285
G1 X122.118 Y156.534 E.22203
G1 X117.604 Y156.079 E.22902
G1 X113.265 Y155.259 E.2229
G1 X109.135 Y154.116 E.21631
G1 X105.313 Y152.712 E.20554
G1 X101.2 Y150.8 E.22896
G1 X97.364 Y148.591 E.22345
G1 X93.572 Y145.942 E.2335
G1 X90.172 Y143.093 E.22392
G1 X87.831 Y140.813 E.16496
G1 X85.128 Y137.773 E.20534
G1 X82.469 Y134.237 E.22333
G1 X80.072 Y130.407 E.22808
G1 X77.981 Y126.295 E.23286
G1 X76.333 Y122.197 E.22296
G1 X75.015 Y117.855 E.22905
G1 X74.152 Y113.858 E.20641
G1 X73.593 Y109.609 E.21633
G1 X73.385 Y105.189 E.22336
G1 X73.4 Y103.746 E.07284
G1 X73.641 Y99.859 E.19659
G1 X74.269 Y95.492 E.22271
G1 X75.323 Y90.991 E.23335
G1 X76.735 Y86.709 E.2276
G1 X78.476 Y82.649 E.22299
G1 X80.394 Y79.03 E.20675
G1 X82.717 Y75.402 E.21746
G1 X85.403 Y71.896 E.22295
M204 S1000
;WIPE_START
G1 F8640
G1 X85.458 Y71.824 E-.02092
G1 X87.734 Y69.333 E-.77908
;WIPE_END
G1 Z.6 F720
G1 X87.82 Y73.765 F10800
G1 Z.2 F720
G1 E.8 F1500
M204 S800
G1 F1200
G1 X87.862 Y73.71 E.00349
G1 X90.581 Y70.741 E.20322
G1 X93.377 Y68.145 E.19259
G1 X96.475 Y65.7 E.19922
G1 X99.935 Y63.408 E.2095
G1 X103.562 Y61.426 E.20864
G1 X107.357 Y59.755 E.20932
G1 X111.402 Y58.381 E.21565
G1 X115.553 Y57.367 E.2157
G1 X119.646 Y56.734 E.20907
G1 X124.296 Y56.46 E.23513
G1 X127.908 Y56.524 E.18236
G1 X131.839 Y56.923 E.19945
G1 X135.922 Y57.683 E.20965
G1 X139.908 Y58.783 E.20873
G1 X143.792 Y60.22 E.20905
G1 X147.652 Y62.045 E.21553
G1 X151.341 Y64.205 E.21579
G1 X154.726 Y66.6 E.20932
G1 X157.716 Y69.112 E.19713
G1 X159.792 Y71.119 E.14576
G1 X162.62 Y74.293 E.21459
G1 X165.157 Y77.696 E.21426
G1 X167.287 Y81.126 E.20381
G1 X169.122 Y84.712 E.20334
G1 X170.693 Y88.555 E.20957
G1 X171.933 Y92.533 E.21033
G1 X172.832 Y96.626 E.21154
G1 X173.373 Y100.729 E.20891
G1 X173.562 Y104.91 E.21127
G1 X173.388 Y109.096 E.21149
G1 X172.848 Y113.28 E.21296
G1 X171.953 Y117.388 E.21223
G1 X170.702 Y121.419 E.21305
G1 X169.133 Y125.262 E.20954
G1 X167.234 Y128.965 E.21007
G1 X165.087 Y132.404 E.20465
G1 X162.677 Y135.636 E.20351
G1 X159.862 Y138.807 E.21404
G1 X156.812 Y141.69 E.21186
G1 X153.508 Y144.31 E.21286
G1 X150.139 Y146.545 E.20408
G1 X146.61 Y148.487 E.20333
G1 X142.825 Y150.172 E.20914
G1 X138.863 Y151.539 E.21157
G1 X134.774 Y152.565 E.21281
G1 X130.627 Y153.232 E.21203
G1 X126.418 Y153.54 E.21303
G1 X122.287 Y153.485 E.20855
G1 X118.139 Y153.072 E.21042
G1 X114.054 Y152.309 E.20977
G1 X110.172 Y151.241 E.20324
G1 X106.386 Y149.852 E.20357
G1 X102.516 Y148.041 E.21568
G1 X98.822 Y145.898 E.21558
G1 X95.427 Y143.516 E.20935
G1 X92.425 Y141.014 E.19727
G1 X90.17 Y138.84 E.15811
G1 X87.374 Y135.698 E.21231
G1 X84.869 Y132.34 E.21148
G1 X82.655 Y128.769 E.21209
G1 X80.761 Y125.028 E.21166
G1 X79.212 Y121.177 E.20953
G1 X77.995 Y117.19 E.21043
G1 X77.125 Y113.127 E.20974
G1 X76.617 Y109.158 E.20199
M73 P1 R60
M73 Q1 S60
G1 X76.439 Y105.139 E.20307
G1 X76.68 Y100.172 E.25102
G1 X77.27 Y96.062 E.20959
G1 X78.234 Y91.919 E.21472
G1 X79.555 Y87.882 E.21442
G1 X81.184 Y84.06 E.20972
G1 X83.141 Y80.384 E.21022
G1 X85.399 Y76.896 E.20974
G1 X87.765 Y73.836 E.19525
M204 S1000
G1 X88.244 Y74.207 F10800
M204 S800
G1 F1200
G1 X88.319 Y74.111 E.00615
G1 X91.02 Y71.16 E.20194
G1 X93.763 Y68.614 E.18892
G1 X96.842 Y66.184 E.198
G1 X100.26 Y63.921 E.20693
G1 X103.841 Y61.965 E.20597
G1 X107.589 Y60.316 E.2067
G1 X111.559 Y58.968 E.21164
G1 X115.659 Y57.965 E.21307
G1 X119.702 Y57.339 E.20652
G1 X123.584 Y57.065 E.19645
G1 X127.859 Y57.13 E.21582
G1 X131.765 Y57.525 E.19818
G1 X135.798 Y58.278 E.2071
G1 X139.734 Y59.364 E.20611
G1 X143.568 Y60.784 E.20638
G1 X147.357 Y62.576 E.21158
G1 X151.002 Y64.708 E.21316
G1 X154.345 Y67.073 E.20671
G1 X157.317 Y69.57 E.19595
G1 X159.362 Y71.547 E.14358
G1 X162.141 Y74.666 E.21087
G1 X164.648 Y78.028 E.2117
G1 X166.752 Y81.413 E.20119
G1 X168.575 Y84.977 E.20208
G1 X170.126 Y88.773 E.207
G1 X171.349 Y92.701 E.20767
G1 X172.236 Y96.743 E.20889
G1 X172.769 Y100.795 E.2063
G1 X172.955 Y104.924 E.20864
G1 X172.782 Y109.057 E.20881
G1 X172.248 Y113.189 E.21031
G1 X171.363 Y117.246 E.20961
G1 X170.135 Y121.202 E.20909
G1 X168.586 Y124.997 E.20691
G1 X166.712 Y128.655 E.20747
G1 X164.593 Y132.051 E.20206
G1 X162.198 Y135.262 E.20221
G1 X159.417 Y138.393 E.21139
G1 X156.404 Y141.24 E.20925
G1 X153.162 Y143.811 E.20887
G1 X149.835 Y146.019 E.20156
G1 X146.329 Y147.949 E.20202
G1 X142.59 Y149.612 E.20657
G1 X138.678 Y150.96 E.20887
G1 X134.639 Y151.973 E.2102
G1 X130.543 Y152.631 E.20941
G1 X126.413 Y152.933 E.20903
G1 X122.334 Y152.879 E.20592
G1 X118.237 Y152.472 E.20783
G1 X114.203 Y151.72 E.20714
G1 X110.346 Y150.659 E.20193
G1 X106.607 Y149.287 E.20105
G1 X102.809 Y147.509 E.21169
G1 X99.159 Y145.393 E.21297
G1 X95.806 Y143.041 E.20674
G1 X92.822 Y140.554 E.19609
G1 X90.6 Y138.411 E.15583
G1 X87.836 Y135.304 E.20992
G1 X85.363 Y131.987 E.20885
G1 X83.191 Y128.483 E.2081
G1 X81.319 Y124.789 E.20905
G1 X79.789 Y120.987 E.20688
G1 X78.586 Y117.05 E.20781
G1 X77.726 Y113.037 E.20717
G1 X77.221 Y109.093 E.20071
G1 X77.046 Y105.121 E.2007
G1 X77.285 Y100.221 E.24764
G1 X77.869 Y96.161 E.20705
G1 X78.816 Y92.095 E.21074
G1 X80.118 Y88.108 E.21172
G1 X81.726 Y84.334 E.20708
G1 X83.658 Y80.703 E.20762
G1 X85.887 Y77.257 E.20717
G1 X88.189 Y74.278 E.19004
M204 S1000
G1 X88.67 Y74.649 F10800
M204 S800
G1 F1200
G1 X88.791 Y74.492 E.01001
G1 X91.46 Y71.579 E.19943
G1 X94.149 Y69.083 E.1852
G1 X97.208 Y66.669 E.1967
G1 X100.584 Y64.435 E.20435
G1 X104.121 Y62.504 E.20342
G1 X107.821 Y60.877 E.20403
G1 X111.741 Y59.547 E.20896
G1 X115.765 Y58.563 E.20911
G1 X119.757 Y57.944 E.20392
G1 X124.287 Y57.674 E.22908
G1 X127.811 Y57.735 E.17791
G1 X131.691 Y58.128 E.19686
G1 X135.674 Y58.872 E.20453
G1 X139.56 Y59.946 E.20351
G1 X143.345 Y61.349 E.20377
G1 X147.085 Y63.119 E.20887
G1 X150.662 Y65.211 E.20918
G1 X153.964 Y67.546 E.20415
G1 X156.919 Y70.028 E.1948
G1 X158.932 Y71.976 E.1414
M73 P1 R59
G1 X161.679 Y75.06 E.20848
G1 X164.14 Y78.359 E.20776
G1 X166.23 Y81.723 E.19992
G1 X168.029 Y85.242 E.1995
G1 X169.559 Y88.99 E.20435
G1 X170.766 Y92.869 E.20507
G1 X171.641 Y96.86 E.20625
G1 X172.166 Y100.861 E.2037
G1 X172.348 Y104.938 E.20601
G1 X172.176 Y109.019 E.20619
G1 X171.652 Y113.073 E.20634
G1 X170.779 Y117.079 E.20696
G1 X169.567 Y120.985 E.20644
G1 X168.04 Y124.732 E.20425
G1 X166.19 Y128.345 E.2049
G1 X164.085 Y131.719 E.20074
G1 X161.719 Y134.889 E.19967
G1 X158.99 Y137.961 E.20742
G1 X156.017 Y140.772 E.20653
G1 X152.815 Y143.312 E.20631
G1 X149.51 Y145.507 E.20027
G1 X146.047 Y147.411 E.19949
G1 X142.356 Y149.051 E.20388
G1 X138.493 Y150.382 E.20625
G1 X134.529 Y151.375 E.20628
G1 X130.486 Y152.026 E.20671
G1 X126.408 Y152.326 E.20641
G1 X122.381 Y152.274 E.2033
G1 X118.335 Y151.873 E.20524
G1 X114.351 Y151.131 E.20457
G1 X110.543 Y150.085 E.19934
G1 X106.828 Y148.721 E.19977
G1 X103.079 Y146.965 E.20898
G1 X99.497 Y144.889 E.20899
G1 X96.185 Y142.567 E.20418
G1 X93.219 Y140.095 E.1949
G1 X91.03 Y137.982 E.15358
G1 X88.315 Y134.931 E.20616
G1 X85.872 Y131.656 E.20625
G1 X83.726 Y128.197 E.20548
G1 X81.877 Y124.55 E.2064
G1 X80.366 Y120.797 E.20423
G1 X79.177 Y116.909 E.20523
G1 X78.326 Y112.947 E.20456
G1 X77.827 Y109.054 E.19812
G1 X77.653 Y105.102 E.19969
G1 X77.89 Y100.271 E.24416
G1 X78.468 Y96.261 E.20451
G1 X79.404 Y92.246 E.20811
G1 X80.682 Y88.333 E.20779
G1 X82.269 Y84.607 E.20443
G1 X84.175 Y81.021 E.205
G1 X86.375 Y77.618 E.20455
G1 X88.615 Y74.721 E.18485
M204 S1000
G1 X89.095 Y75.092 F10800
M204 S800
G1 F1200
G1 X89.264 Y74.874 E.01392
G1 X91.899 Y71.998 E.1969
G1 X94.534 Y69.552 E.18149
G1 X97.574 Y67.153 E.19548
G1 X100.908 Y64.948 E.20177
G1 X104.4 Y63.043 E.2008
G1 X108.053 Y61.438 E.20141
G1 X111.898 Y60.133 E.20497
G1 X115.871 Y59.161 E.20647
G1 X119.813 Y58.548 E.20138
G1 X123.646 Y58.278 E.19396
G1 X127.762 Y58.34 E.20779
G1 X131.617 Y58.731 E.19559
G1 X135.549 Y59.467 E.20193
G1 X139.385 Y60.528 E.20091
G1 X143.121 Y61.913 E.20113
G1 X146.813 Y63.662 E.20622
G1 X150.322 Y65.715 E.20522
G1 X153.583 Y68.019 E.20155
G1 X156.52 Y70.486 E.19362
G1 X158.501 Y72.404 E.13919
G1 X161.201 Y75.434 E.20487
G1 X163.631 Y78.69 E.20509
G1 X165.695 Y82.011 E.19738
M73 P2 R59
G1 X167.483 Y85.507 E.19822
M73 Q2 S60
G1 X168.992 Y89.207 E.20171
G1 X170.182 Y93.037 E.20245
G1 X171.045 Y96.977 E.2036
G1 X171.562 Y100.927 E.20109
G1 X171.741 Y104.951 E.20333
G1 X171.57 Y108.98 E.20356
G1 X171.052 Y112.982 E.2037
G1 X170.195 Y116.912 E.20304
G1 X169 Y120.768 E.20378
G1 X167.494 Y124.467 E.2016
G1 X165.668 Y128.034 E.20228
G1 X163.591 Y131.366 E.1982
G1 X161.24 Y134.515 E.19837
G1 X158.563 Y137.529 E.20349
G1 X155.629 Y140.305 E.20389
G1 X152.469 Y142.814 E.20368
M73 Q2 S59
G1 X149.206 Y144.981 E.19773
G1 X145.766 Y146.873 E.19818
G1 X142.121 Y148.491 E.20131
G1 X138.307 Y149.804 E.20362
G1 X134.395 Y150.783 E.20356
G1 X130.428 Y151.422 E.20283
G1 X126.403 Y151.719 E.20373
G1 X122.427 Y151.668 E.20072
G1 X118.433 Y151.274 E.20259
G1 X114.5 Y150.543 E.20193
G1 X110.74 Y149.51 E.19683
G1 X107.05 Y148.156 E.19841
G1 X103.371 Y146.433 E.20507
G1 X99.835 Y144.384 E.2063
G1 X96.564 Y142.092 E.20162
G1 X93.616 Y139.636 E.19369
G1 X91.46 Y137.553 E.15133
G1 X88.778 Y134.537 E.20373
G1 X86.381 Y131.325 E.20231
G1 X84.262 Y127.911 E.20283
G1 X82.435 Y124.31 E.20383
G1 X80.942 Y120.607 E.20154
G1 X79.768 Y116.769 E.2026
G1 X78.927 Y112.857 E.20199
G1 X78.431 Y108.989 E.19685
G1 X78.26 Y105.084 E.19731
G1 X78.495 Y100.321 E.24072
G1 X79.067 Y96.361 E.20197
G1 X79.985 Y92.422 E.20416
G1 X81.246 Y88.559 E.20513
G1 X82.811 Y84.88 E.20182
G1 X84.692 Y81.34 E.20236
G1 X86.863 Y77.979 E.20198
G1 X89.04 Y75.163 E.17967
M204 S1000
G1 X89.52 Y75.534 F10800
M204 S800
G1 F1200
G1 X89.72 Y75.274 E.01656
G1 X92.338 Y72.417 E.19561
G1 X94.92 Y70.021 E.17781
G1 X97.94 Y67.638 E.19419
G1 X101.232 Y65.462 E.1992
G1 X104.679 Y63.582 E.1982
G1 X108.285 Y61.999 E.19879
G1 X112.081 Y60.713 E.20232
G1 X115.977 Y59.759 E.20248
G1 X119.868 Y59.153 E.19878
G1 X124.275 Y58.888 E.22286
G1 X127.714 Y58.945 E.17362
G1 X131.543 Y59.334 E.19428
G1 X135.425 Y60.061 E.19937
G1 X139.211 Y61.109 E.1983
G1 X142.898 Y62.478 E.19853
G1 X146.518 Y64.192 E.20218
G1 X149.983 Y66.218 E.20261
G1 X153.203 Y68.492 E.19899
G1 X156.121 Y70.943 E.19236
G1 X158.071 Y72.832 E.13705
G1 X160.738 Y75.828 E.20248
G1 X163.122 Y79.022 E.20119
G1 X165.173 Y82.32 E.19605
G1 X166.936 Y85.772 E.19566
G1 X168.425 Y89.424 E.19908
G1 X169.598 Y93.204 E.19979
G1 X170.449 Y97.094 E.20101
G1 X170.958 Y100.993 E.19849
G1 X171.134 Y104.965 E.2007
G1 X170.964 Y108.941 E.20089
G1 X170.456 Y112.865 E.19973
G1 X169.611 Y116.745 E.20045
G1 X168.433 Y120.551 E.20111
G1 X166.947 Y124.202 E.19898
G1 X165.146 Y127.724 E.19968
G1 X163.082 Y131.034 E.19691
G1 X160.762 Y134.142 E.19578
G1 X158.118 Y137.116 E.20087
G1 X155.241 Y139.838 E.19993
G1 X152.122 Y142.315 E.20105
G1 X148.881 Y144.468 E.19641
G1 X145.485 Y146.334 E.1956
G1 X141.887 Y147.931 E.19871
G1 X138.122 Y149.225 E.20096
G1 X134.285 Y150.186 E.19967
G1 X130.37 Y150.817 E.20018
G1 X126.397 Y151.111 E.2011
G1 X122.474 Y151.063 E.19804
G1 X118.531 Y150.675 E.2
G1 X114.648 Y149.954 E.19936
G1 X110.913 Y148.928 E.19552
G1 X107.272 Y147.591 E.19579
G1 X103.641 Y145.889 E.20243
G1 X100.172 Y143.879 E.20238
G1 X96.943 Y141.618 E.19898
G1 X94.013 Y139.177 E.19251
G1 X91.89 Y137.125 E.14904
G1 X89.256 Y134.163 E.20009
G1 X86.89 Y130.993 E.19967
G1 X84.797 Y127.624 E.20021
G1 X82.993 Y124.071 E.20115
G1 X81.519 Y120.416 E.19894
G1 X80.358 Y116.629 E.19995
G1 X79.527 Y112.767 E.19941
G1 X79.035 Y108.925 E.19552
G1 X78.867 Y105.066 E.19498
G1 X79.1 Y100.371 E.23729
G1 X79.666 Y96.46 E.19948
G1 X80.573 Y92.572 E.20153
G1 X81.81 Y88.784 E.20115
G1 X83.353 Y85.153 E.19915
G1 X85.209 Y81.658 E.19976
G1 X87.352 Y78.34 E.19939
G1 X89.465 Y75.605 E.17446
M204 S1000
G1 X89.944 Y75.975 F10800
M204 S800
G1 F1200
G1 X90.176 Y75.675 E.01914
G1 X92.777 Y72.837 E.19432
G1 X95.306 Y70.49 E.17416
G1 X98.306 Y68.122 E.19293
G1 X101.556 Y65.975 E.19662
G1 X104.958 Y64.121 E.19557
G1 X108.517 Y62.561 E.19615
G1 X112.238 Y61.299 E.19834
G1 X116.084 Y60.356 E.19989
G1 X119.924 Y59.758 E.19618
G1 X123.707 Y59.49 E.19144
G1 X127.665 Y59.551 E.19982
G1 X131.469 Y59.936 E.193
G1 X135.3 Y60.655 E.19676
G1 X139.036 Y61.691 E.19571
G1 X142.674 Y63.042 E.1959
G1 X146.247 Y64.735 E.19958
G1 X149.643 Y66.721 E.19859
G1 X152.822 Y68.965 E.19642
G1 X155.722 Y71.401 E.19118
G1 X157.64 Y73.26 E.13483
G1 X160.26 Y76.201 E.19882
G1 X162.613 Y79.354 E.19859
G1 X164.638 Y82.608 E.19347
G1 X166.39 Y86.036 E.19433
G1 X167.858 Y89.641 E.19649
G1 X169.015 Y93.371 E.19714
G1 X169.853 Y97.211 E.1984
G1 X170.355 Y101.058 E.19584
G1 X170.527 Y104.978 E.19807
G1 X170.358 Y108.901 E.19821
G1 X169.855 Y112.774 E.19715
G1 X169.021 Y116.603 E.19782
G1 X167.866 Y120.335 E.1972
G1 X166.4 Y123.938 E.19635
G1 X164.624 Y127.414 E.19704
G1 X162.588 Y130.681 E.19432
G1 X160.283 Y133.768 E.19448
G1 X157.691 Y136.684 E.19694
G1 X154.853 Y139.371 E.19728
G1 X151.775 Y141.817 E.19846
G1 X148.577 Y143.942 E.19382
