; generated by PrusaSlicer 2.7.1+win64 on 2025-05-08 at 21:07:29 UTC


;
;
; 

; external perimeters extrusion width = 0.65mm
; perimeters extrusion width = 0.65mm
; infill extrusion width = 0.65mm
; solid infill extrusion width = 0.65mm
; top infill extrusion width = 0.60mm
; support material extrusion width = 0.55mm
; first layer extrusion width = 0.65mm

; external perimeters extrusion width = 0.65mm
; perimeters extrusion width = 0.65mm
; infill extrusion width = 0.65mm
; solid infill extrusion width = 0.65mm
; top infill extrusion width = 0.60mm
; support material extrusion width = 0.55mm
; first layer extrusion width = 0.65mm

; external perimeters extrusion width = 0.65mm
; perimeters extrusion width = 0.65mm
; infill extrusion width = 0.65mm
; solid infill extrusion width = 0.65mm
; top infill extrusion width = 0.60mm
; support material extrusion width = 0.55mm
; first layer extrusion width = 0.65mm

M73 P0 R88
M73 C34
M73 Q0 S89
M73 D35
M201 X1000 Y1000 Z200 E5000 ; sets maximum accelerations, mm/sec^2
M203 X200 Y200 Z12 E120 ; sets maximum feedrates, mm / sec
M204 S1250 T1250 ; sets acceleration (S) and retract acceleration (R), mm/sec^2
M205 X8.00 Y8.00 Z0.40 E4.50 ; sets the jerk limits, mm/sec
M205 S0 T0 ; sets the minimum extruding and travel feed rate, mm/sec

; printing object onderkant_lamp.stl id:0 copy 0
; stop printing object onderkant_lamp.stl id:0 copy 0
; printing object rotary_encoder_ophouder_1.stl id:2 copy 0
; stop printing object rotary_encoder_ophouder_1.stl id:2 copy 0
; printing object rotary_encoder_ophouder_1.stl id:1 copy 0
; stop printing object rotary_encoder_ophouder_1.stl id:1 copy 0

;TYPE:Custom
M862.3 P "MK3S" ; printer model check
M862.1 P0.6 ; nozzle diameter check
M115 U3.13.0 ; tell printer latest fw version
G90 ; use absolute coordinates
M83 ; extruder relative mode
M104 S215 ; set extruder temp
M140 S60 ; set bed temp
M190 S60 ; wait for bed temp
M109 S215 ; wait for extruder temp
G28 W ; home all without mesh bed level
G80 ; mesh bed leveling

G1 Z0.2 F720
G1 Y-3 F1000 ; go outside print area
G92 E0
G1 X60 E9 F1000 ; intro line
G1 X100 E12.5 F1000 ; intro line

G92 E0
M221 S95
G21 ; set units to millimeters
G90 ; use absolute coordinates
M83 ; use relative distances for extrusion
M900 K0.04 ; Filament gcode LA 1.5
M900 K18 ; Filament gcode LA 1.0
M107
;LAYER_CHANGE
;Z:0.2
;HEIGHT:0.2
;BEFORE_LAYER_CHANGE
G92 E0.0
;0.2


G1 E-.8 F2100
M73 Q0 S88
M73 D34
G1 Z.2 F720
;AFTER_LAYER_CHANGE
;0.2
G1 X78.963 Y56.173 F10800
G1 Z.2 F720
G1 E.8 F1500
M204 S800
;TYPE:Skirt/Brim
;WIDTH:0.65
G1 F1200
G1 X80.517 Y55.425 E.08706
G1 X163.286 Y46.168 E4.20414
G1 X169.401 Y46.152 E.30868
G1 X171.245 Y46.915 E.10074
G1 X174.232 Y49.903 E.21327
G1 X174.996 Y51.746 E.10071
G1 X174.996 Y105.771 E2.72712
G1 X171.222 Y144.83 E1.98084
G1 X170.065 Y150.545 E.29434
M73 P0 R87
G1 X168.378 Y155.609 E.26944
G1 X165.944 Y160.724 E.28594
G1 X162.404 Y166.163 E.32759
G1 X158.712 Y170.459 E.28594
G1 X154.637 Y174.16 E.27788
G1 X149.441 Y177.765 E.31923
G1 X144.407 Y180.362 E.28593
G1 X139.241 Y182.263 E.27787
G1 X133.072 Y183.654 E.31922
G1 X127.431 Y184.172 E.28595
G1 X121.929 Y183.996 E.27788
G1 X115.689 Y182.971 E.31921
G1 X110.266 Y181.334 E.28595
G1 X105.232 Y179.105 E.27791
G1 X100.235 Y176.101 E.29431
G1 X95.79 Y172.59 E.28593
G1 X91.275 Y167.927 E.32764
G1 X87.908 Y163.372 E.28593
G1 X85.065 Y158.281 E.29434
G1 X82.896 Y152.868 E.29436
G1 X81.5 Y147.543 E.27788
G1 X80.741 Y141.854 E.28972
G1 X75.515 Y89.373 E2.66228
G1 X75.515 Y65.715 E1.19423
G1 X75.649 Y64.891 E.04214
G1 X78.156 Y57.369 E.40024
G1 X78.913 Y56.247 E.06832
M204 S1000
;WIPE_START
G1 F8640
G1 X78.963 Y56.173 E-.02062
G1 X80.517 Y55.425 E-.39823
G1 X82.157 Y55.242 E-.38115
;WIPE_END
G1 Z.6 F720
G1 X92.741 Y61.812 F10800
G1 Z.2 F720
G1 E.8 F1500
M204 S800
G1 F1200
G1 X93.127 Y60.971 E.04671
G1 X93.647 Y60.268 E.04414
G1 X94.31 Y59.64 E.0461
G1 X95.077 Y59.161 E.04565
G1 X95.981 Y58.82 E.04877
G1 X96.765 Y58.694 E.04008
G1 X97.6 Y58.696 E.04215
G1 X121.378 Y58.976 E1.20037
G1 X122.309 Y59.154 E.04785
G1 X123.148 Y59.5 E.04581
G1 X123.888 Y59.995 E.04494
G1 X124.527 Y60.625 E.0453
G1 X125.023 Y61.331 E.04355
G1 X125.39 Y62.165 E.046
G1 X125.609 Y63.307 E.0587
G1 X125.358 Y84.646 E1.07724
G1 X125.182 Y85.571 E.04753
G1 X124.84 Y86.406 E.04555
G1 X124.347 Y87.149 E.04501
G1 X123.718 Y87.79 E.04533
G1 X122.915 Y88.343 E.04922
G1 X122.149 Y88.666 E.04196
G1 X121.392 Y88.845 E.03927
G1 X118.529 Y88.845 E.14452
G1 X117.566 Y88.645 E.04965
G1 X116.787 Y88.313 E.04275
G1 X116.051 Y87.811 E.04497
G1 X115.324 Y87.068 E.05247
G1 X114.795 Y86.217 E.05058
G1 X114.418 Y85.002 E.06422
G1 X109.18 Y84.94 E.26443
G1 X109.036 Y85.532 E.03075
G1 X108.669 Y86.349 E.04521
G1 X108.144 Y87.082 E.04551
G1 X107.467 Y87.727 E.0472
G1 X106.783 Y88.17 E.04114
G1 X106.022 Y88.486 E.04159
G1 X105.148 Y88.671 E.0451
G1 X96.23 Y88.562 E.4502
G1 X95.417 Y88.369 E.04218
G1 X94.656 Y88.034 E.04197
G1 X93.929 Y87.533 E.04457
G1 X93.335 Y86.941 E.04233
G1 X92.84 Y86.236 E.04348
G1 X92.473 Y85.402 E.046
G1 X92.254 Y84.259 E.05875
G1 X92.536 Y62.655 E1.09064
G1 X92.72 Y61.899 E.03928
M204 S1000
G1 X93.31 Y62.043 F10800
M204 S800
G1 F1200
G1 X93.324 Y61.985 E.00301
G1 X93.663 Y61.258 E.04049
G1 X94.115 Y60.655 E.03804
G1 X94.702 Y60.105 E.04061
G1 X95.368 Y59.695 E.03948
G1 X96.161 Y59.401 E.04269
G1 X96.831 Y59.298 E.03422
G1 X121.342 Y59.582 E1.23737
G1 X122.16 Y59.744 E.04209
G1 X122.883 Y60.048 E.03959
G1 X123.522 Y60.481 E.03896
G1 X124.078 Y61.034 E.03958
G1 X124.507 Y61.651 E.03793
G1 X124.82 Y62.374 E.03977
G1 X125.002 Y63.33 E.04912
G1 X124.752 Y84.611 E1.07432
G1 X124.593 Y85.423 E.04177
G1 X124.293 Y86.142 E.03933
G1 X123.861 Y86.785 E.0391
G1 X123.307 Y87.342 E.03966
G1 X122.648 Y87.797 E.04042
G1 X121.983 Y88.081 E.0365
G1 X121.288 Y88.246 E.03606
G1 X118.563 Y88.238 E.13756
G1 X117.724 Y88.058 E.04332
G1 X117.058 Y87.769 E.03665
G1 X116.422 Y87.33 E.03901
G1 X115.784 Y86.67 E.04634
G1 X115.352 Y85.974 E.04135
G1 X115.101 Y85.316 E.03555
G1 X114.923 Y84.401 E.04705
G1 X108.695 Y84.327 E.3144
G1 X108.468 Y85.316 E.05122
G1 X108.155 Y86.025 E.03912
G1 X107.703 Y86.664 E.03951
G1 X107.069 Y87.268 E.0442
G1 X106.525 Y87.619 E.03268
G1 X105.814 Y87.915 E.03888
G1 X105.121 Y88.064 E.03578
G1 X96.337 Y87.963 E.44344
G1 X95.585 Y87.785 E.03901
G1 X94.932 Y87.493 E.03611
G1 X94.3 Y87.052 E.0389
G1 X93.786 Y86.533 E.03687
G1 X93.357 Y85.916 E.03793
G1 X93.044 Y85.193 E.03977
G1 X92.862 Y84.237 E.04912
G1 X93.134 Y62.765 E1.08397
G1 X93.289 Y62.13 E.033
M204 S1000
G1 X93.875 Y62.268 F10800
M204 S800
G1 F1200
G1 X93.888 Y62.213 E.00285
G1 X94.2 Y61.544 E.03726
G1 X94.549 Y61.08 E.02931
G1 X95.093 Y60.57 E.03764
G1 X95.655 Y60.231 E.03313
G1 X96.337 Y59.983 E.03663
G1 X97.586 Y59.91 E.06316
G1 X121.305 Y60.189 E1.19739
G1 X122.006 Y60.332 E.03611
G1 X122.614 Y60.593 E.0334
G1 X123.153 Y60.963 E.033
G1 X123.627 Y61.441 E.03398
G1 X123.988 Y61.968 E.03225
G1 X124.248 Y62.58 E.03357
G1 X124.395 Y63.353 E.03972
G1 X124.145 Y84.574 E1.07129
G1 X124.005 Y85.27 E.03584
G1 X123.747 Y85.875 E.0332
G1 X123.377 Y86.417 E.03313
G1 X122.899 Y86.892 E.03402
G1 X122.381 Y87.251 E.03181
G1 X121.77 Y87.512 E.03354
G1 X121.187 Y87.646 E.0302
G1 X118.601 Y87.631 E.13054
G1 X117.887 Y87.473 E.03691
G1 X117.332 Y87.227 E.03064
G1 X116.796 Y86.851 E.03305
G1 X116.245 Y86.275 E.04024
G1 X115.907 Y85.727 E.0325
G1 X115.691 Y85.173 E.03002
G1 X115.578 Y84.59 E.02998
G1 X115.575 Y83.723 E.04377
G1 X115.001 Y83.795 E.0292
G1 X108.055 Y83.713 E.35065
G1 X108.032 Y84.515 E.0405
G1 X107.9 Y85.098 E.03017
G1 X107.612 Y85.752 E.03607
G1 X107.263 Y86.245 E.03049
G1 X106.673 Y86.807 E.04113
G1 X106.223 Y87.093 E.02692
G1 X105.653 Y87.329 E.03114
G1 X105.09 Y87.457 E.02914
G1 X96.44 Y87.364 E.43667
G1 X95.802 Y87.217 E.03305
G1 X95.251 Y86.975 E.03038
G1 X94.71 Y86.604 E.03311
G1 X94.237 Y86.126 E.03395
G1 X93.876 Y85.599 E.03225
G1 X93.616 Y84.987 E.03357
G1 X93.469 Y84.214 E.03972
G1 X93.733 Y62.871 E1.07745
G1 X93.854 Y62.356 E.0267
M204 S1000
G1 X94.441 Y62.488 F10800
M204 S800
G1 F1200
G1 X94.452 Y62.439 E.00254
G1 X94.736 Y61.831 E.03387
G1 X94.983 Y61.506 E.02061
G1 X95.485 Y61.035 E.03475
G1 X95.889 Y60.791 E.02382
G1 X96.514 Y60.564 E.03357
G1 X96.908 Y60.509 E.02008
G1 X121.267 Y60.796 E1.2297
G1 X121.848 Y60.918 E.02997
G1 X122.34 Y61.135 E.02714
G1 X122.78 Y61.443 E.02711
G1 X123.467 Y62.28 E.05466
G1 X123.675 Y62.783 E.02748
G1 X123.787 Y63.376 E.03046
G1 X123.538 Y84.539 E1.06836
G1 X123.432 Y85.066 E.02714
G1 X123.225 Y85.564 E.02722
G1 X122.927 Y86.008 E.02699
G1 X122.113 Y86.705 E.0541
G1 X121.091 Y87.046 E.05439
G1 X118.639 Y87.025 E.12378
G1 X118.106 Y86.906 E.02757
G1 X117.607 Y86.685 E.02755
G1 X117.172 Y86.375 E.02696
G1 X116.742 Y85.925 E.03142
G1 X116.462 Y85.479 E.02658
G1 X116.268 Y84.98 E.02703
G1 X116.18 Y84.51 E.02414
G1 X116.19 Y83.022 E.07511
G1 X114.984 Y83.187 E.06144
G1 X107.457 Y83.099 E.37998
G1 X107.432 Y84.419 E.06664
G1 X107.331 Y84.887 E.02417
G1 X107.094 Y85.433 E.03005
G1 X106.821 Y85.827 E.0242
G1 X106.278 Y86.344 E.03785
G1 X105.927 Y86.562 E.02086
G1 X105.059 Y86.849 E.04615
G1 X96.539 Y86.765 E.4301
G1 X96.018 Y86.649 E.02694
G1 X95.524 Y86.432 E.02724
G1 X95.083 Y86.124 E.02715
G1 X94.397 Y85.287 E.05463
G1 X94.189 Y84.784 E.02748
G1 X94.077 Y84.191 E.03046
G1 X94.332 Y62.972 E1.07119
G1 X94.421 Y62.576 E.02049
M204 S1000
G1 X95.01 Y62.701 F10800
M204 S800
G1 F1200
G1 X95.019 Y62.657 E.00227
G1 X95.244 Y62.165 E.02731
G1 X95.876 Y61.501 E.04627
G1 X96.637 Y61.16 E.04209
G1 X97.572 Y61.124 E.04723
G1 X121.23 Y61.403 E1.19431
G1 X122.024 Y61.654 E.04204
M73 P1 R87
G1 X122.368 Y61.89 E.02106
G1 X122.918 Y62.542 E.04306
G1 X123.18 Y63.399 E.04524
G1 X122.932 Y84.501 E1.06528
G1 X122.68 Y85.295 E.04205
M73 Q1 S88
G1 X122.445 Y85.638 E.02099
G1 X121.844 Y86.16 E.04018
G1 X121.059 Y86.439 E.04205
G1 X118.733 Y86.424 E.11742
G1 X117.882 Y86.142 E.04525
G1 X117.203 Y85.528 E.04621
G1 X116.859 Y84.838 E.03892
G1 X116.782 Y84.428 E.02106
G1 X116.806 Y82.405 E.10213
G1 X116.094 Y82.421 E.03595
G1 X114.967 Y82.58 E.05745
G1 X106.861 Y82.485 E.40921
G1 X106.825 Y84.374 E.09537
G1 X106.553 Y85.156 E.04179
G1 X105.889 Y85.877 E.04948
G1 X104.961 Y86.249 E.05047
G1 X96.634 Y86.164 E.42036
G1 X96.226 Y86.078 E.02105
G1 X95.496 Y85.677 E.04204
G1 X94.946 Y85.025 E.04306
G1 X94.684 Y84.168 E.04524
G1 X94.932 Y63.067 E1.06523
G1 X94.991 Y62.789 E.01435
M73 C33
M204 S1000
G1 X95.568 Y63.034 F10800
M204 S800
G1 F1200
G1 X95.861 Y62.346 E.03775
G1 X96.377 Y61.904 E.0343
G1 X96.947 Y61.724 E.03017
G1 X121.193 Y62.009 E1.224
G1 X121.954 Y62.335 E.04179
G1 X122.369 Y62.804 E.03161
G1 X122.572 Y63.421 E.03279
G1 X122.325 Y84.464 E1.0623
G1 X121.999 Y85.225 E.04179
G1 X121.53 Y85.64 E.03161
G1 X120.968 Y85.838 E.03008
G1 X118.769 Y85.818 E.11101
G1 X118.157 Y85.6 E.03279
G1 X117.664 Y85.132 E.03431
G1 X117.434 Y84.64 E.02742
G1 X117.42 Y81.802 E.14326
G1 X116.895 Y81.796 E.0265
G1 X116.043 Y81.815 E.04302
G1 X114.95 Y81.973 E.05575
G1 X106.262 Y81.87 E.43859
G1 X106.176 Y84.511 E.13339
G1 X105.9 Y85.035 E.0299
G1 X105.54 Y85.38 E.02517
G1 X104.869 Y85.648 E.03647
G1 X96.671 Y85.558 E.41385
G1 X95.909 Y85.232 E.04184
G1 X95.494 Y84.763 E.03161
G1 X95.291 Y84.146 E.03279
G1 X95.539 Y63.118 E1.06154
M204 S1000
G1 X96.146 Y63.14 F10800
M204 S800
G1 F1200
G1 X96.31 Y62.756 E.02108
G1 X96.635 Y62.454 E.0224
G1 X96.974 Y62.331 E.0182
G1 X97.558 Y62.338 E.02948
G1 X121.156 Y62.616 E1.19128
G1 X121.541 Y62.781 E.02114
G1 X121.842 Y63.106 E.02236
G1 X121.965 Y63.444 E.01816
G1 X121.718 Y84.427 E1.05927
G1 X121.553 Y84.812 E.02114
G1 X121.229 Y85.113 E.02232
G1 X120.89 Y85.236 E.0182
G1 X118.806 Y85.211 E.10521
G1 X118.421 Y85.046 E.02114
M73 D33
G1 X118.12 Y84.721 E.02236
G1 X117.997 Y84.383 E.01816
G1 X118.035 Y81.202 E.16058
G1 X116.891 Y81.189 E.05775
G1 X115.991 Y81.209 E.04544
G1 X114.933 Y81.365 E.05398
G1 X105.665 Y81.256 E.46787
G1 X105.606 Y84.298 E.15359
G1 X105.454 Y84.623 E.01811
G1 X105.18 Y84.891 E.01935
G1 X104.85 Y85.035 E.01817
G1 X96.708 Y84.951 E.41102
M73 Q1 S87
G1 X96.323 Y84.786 E.02114
G1 X96.022 Y84.461 E.02236
G1 X95.899 Y84.123 E.01816
G1 X96.144 Y63.23 E1.05473
M204 S1000
G1 X96.752 Y63.238 F10800
M204 S800
G1 F1200
G1 X97.057 Y62.94 E.02152
G1 X121.17 Y63.269 E1.21731
G1 X121.357 Y63.527 E.01608
G1 X121.065 Y84.44 E1.05577
G1 X120.807 Y84.627 E.01608
G1 X118.792 Y84.558 E.10177
G1 X118.605 Y84.3 E.01608
G1 X118.649 Y80.602 E.18668
G1 X116.888 Y80.581 E.0889
G1 X115.938 Y80.603 E.04797
G1 X114.915 Y80.758 E.05223
G1 X105.129 Y80.643 E.49402
G1 X105.059 Y81.154 E.02604
G1 X105.013 Y84.141 E.1508
G1 X104.82 Y84.393 E.01602
G1 X96.694 Y84.298 E.41022
G1 X96.507 Y84.04 E.01608
G1 X96.75 Y63.328 E1.04559
M204 S1000
;WIPE_START
G1 F8640
G1 X96.752 Y63.238 E-.02079
G1 X97.057 Y62.94 E-.09846
G1 X100.005 Y62.98 E-.68075
;WIPE_END
G1 Z.6 F720
G1 X111.62 Y98.79 F10800
G1 Z.2 F720
G1 E.8 F1500
M204 S800
G1 F1200
G1 X116.692 Y97.295 E.26692
G1 X121.905 Y96.443 E.26664
G1 X127.659 Y96.259 E.2906
G1 X132.909 Y96.775 E.26629
G1 X138.066 Y97.942 E.2669
G1 X143.462 Y99.928 E.29025
G1 X148.145 Y102.382 E.26688
G1 X152.477 Y105.392 E.26628
G1 X156.737 Y109.26 E.29046
G1 X160.061 Y113.164 E.25883
M73 P1 R86
G1 X163.211 Y118.006 E.29159
G1 X165.547 Y122.905 E.27397
G1 X167.199 Y127.913 E.2662
G1 X168.219 Y133.095 E.2666
G1 X168.588 Y138.846 E.2909
G1 X168.24 Y144.11 E.2663
G1 X167.241 Y149.295 E.26655
G1 X165.425 Y154.764 E.29089
G1 X163.124 Y159.518 E.26661
G1 X160.255 Y163.945 E.26629
G1 X156.519 Y168.333 E.29091
G1 X152.606 Y171.872 E.26633
G1 X148.281 Y174.902 E.26657
G1 X143.17 Y177.568 E.29099
G1 X138.14 Y179.403 E.27028
G1 X132.914 Y180.591 E.27053
G1 X127.581 Y181.111 E.27048
G1 X122.222 Y180.955 E.27063
G1 X116.531 Y180.035 E.291
G1 X111.477 Y178.524 E.26628
G1 X106.644 Y176.396 E.26657
G1 X101.716 Y173.409 E.29089
G1 X97.597 Y170.112 E.26633
G1 X93.916 Y166.325 E.26659
G1 X90.469 Y161.707 E.29089
G1 X87.889 Y157.105 E.26632
G1 X85.898 Y152.214 E.26656
G1 X84.436 Y146.638 E.29098
G1 X83.766 Y141.325 E.27032
G1 X83.771 Y135.966 E.27052
G1 X84.452 Y130.645 E.27079
G1 X85.795 Y125.462 E.27027
G1 X87.955 Y120.125 E.29063
G1 X90.559 Y115.523 E.26691
G1 X93.706 Y111.289 E.2663
G1 X97.71 Y107.153 E.29059
G1 X101.85 Y103.864 E.2669
G1 X106.356 Y101.121 E.26629
G1 X111.538 Y98.827 E.28607
M204 S1000
G1 X111.782 Y99.38 F10800
M204 S800
G1 F1200
G1 X111.811 Y99.367 E.0016
G1 X116.809 Y97.891 E.26307
G1 X121.983 Y97.045 E.26465
G1 X127.619 Y96.865 E.28464
G1 X132.831 Y97.378 E.26437
G1 X137.913 Y98.53 E.26304
G1 X143.197 Y100.475 E.28423
G1 X147.814 Y102.892 E.26307
G1 X152.115 Y105.879 E.26433
G1 X156.288 Y109.668 E.28453
G1 X159.587 Y113.543 E.25689
G1 X162.206 Y117.534 E.24097
G1 X162.671 Y118.283 E.0445
G1 X164.976 Y123.113 E.27015
G1 X166.617 Y128.085 E.2643
G1 X167.619 Y133.192 E.26271
G1 X167.981 Y138.826 E.28498
G1 X167.635 Y144.051 E.26433
G1 X166.648 Y149.161 E.26271
G1 X164.87 Y154.518 E.28492
G1 X162.604 Y159.204 E.26275
G1 X159.756 Y163.598 E.26432
G1 X156.097 Y167.896 E.28493
G1 X152.213 Y171.41 E.26439
G1 X147.949 Y174.394 E.26271
G1 X142.943 Y177.005 E.285
G1 X137.986 Y178.816 E.2664
G1 X132.836 Y179.989 E.26662
G1 X127.541 Y180.505 E.26855
G1 X122.26 Y180.349 E.2667
G1 X116.686 Y179.448 E.28502
G1 X111.669 Y177.948 E.26433
G1 X106.907 Y175.849 E.2627
G1 X102.08 Y172.923 E.28493
G1 X97.992 Y169.65 E.26435
G1 X94.365 Y165.916 E.26277
G1 X90.989 Y161.393 E.2849
G1 X88.428 Y156.825 E.26435
G1 X86.467 Y152.004 E.26272
G1 X85.035 Y146.542 E.28503
G1 X84.371 Y141.268 E.26833
G1 X84.378 Y135.986 E.26663
G1 X85.052 Y130.741 E.26694
G1 X86.378 Y125.634 E.26634
G1 X88.494 Y120.406 E.2847
G1 X91.057 Y115.87 E.263
G1 X94.181 Y111.667 E.26435
G1 X98.103 Y107.616 E.28463
G1 X102.182 Y104.373 E.26305
G1 X106.655 Y101.65 E.26434
G1 X111.7 Y99.416 E.27852
M204 S1000
G1 X111.945 Y99.969 F10800
M204 S800
G1 F1200
G1 X112.002 Y99.944 E.00314
G1 X116.962 Y98.479 E.26107
G1 X122.062 Y97.647 E.26085
G1 X127.58 Y97.471 E.27868
G1 X132.715 Y97.974 E.26045
G1 X137.759 Y99.118 E.26108
