; generated by PrusaSlicer 2.7.1+win64 on 2025-05-02 at 07:12:59 UTC


;
;

;
;
; 

; external perimeters extrusion width = 0.60mm
; perimeters extrusion width = 0.60mm
; infill extrusion width = 0.60mm
; solid infill extrusion width = 0.60mm
; top infill extrusion width = 0.50mm
; support material extrusion width = 0.55mm
; first layer extrusion width = 0.65mm

M73 P0 R142
M201 X2500 Y2500 Z400 E5000 ; sets maximum accelerations, mm/sec^2
M203 X180 Y180 Z12 E80 ; sets maximum feedrates, mm / sec
M204 P2000 R1250 T2500 ; sets acceleration (P, T) and retract acceleration (R), mm/sec^2
M205 X8.00 Y8.00 Z2.00 E10.00 ; sets the jerk limits, mm/sec
M205 S0 T0 ; sets the minimum extruding and travel feed rate, mm/sec

; printing object bovenste deel hub.stl id:0 copy 0
; stop printing object bovenste deel hub.stl id:0 copy 0

;TYPE:Custom
M862.3 P "MINI" ; printer model check
G90 ; use absolute coordinates
M83 ; extruder relative mode
M104 S170 ; set extruder temp for bed leveling
M140 S60 ; set bed temp
M109 R170 ; wait for bed leveling temp
M190 S60 ; wait for bed temp
M204 T1250 ; set travel acceleration
G28 ; home all without mesh bed level
G29 ; mesh bed leveling 
M204 T2500 ; restore travel acceleration
M104 S215 ; set extruder temp
G92 E0
G1 Y-2 X179 F2400
G1 Z3 F720
M109 S215 ; wait for extruder temp

; intro line
G1 X170 F1000
G1 Z0.2 F720
G1 X110 E8 F900
G1 X40 E10 F700
G92 E0

M221 S95 ; set flow
G21 ; set units to millimeters
G90 ; use absolute coordinates
M83 ; use relative distances for extrusion
M900 K0.12 ; Filament gcode LA 1.5
; ; Filament gcode LA 1.0
M107
;LAYER_CHANGE
;Z:0.2
;HEIGHT:0.2
;BEFORE_LAYER_CHANGE
G92 E0.0
;0.2


G1 E-3.2 F4200
G1 Z.2 F720
;AFTER_LAYER_CHANGE
;0.2
G1 X35.564 Y46.868 F9000
G1 Z.2 F720
G1 E3.2 F2400
M204 P800
;TYPE:Skirt/Brim
;WIDTH:0.65
G1 F1200
G1 X53.246 Y37.307 E1.0147
G1 X54.486 Y36.993 E.06457
G1 X56.825 Y36.993 E.11807
G1 X101.391 Y36.994 E2.24964
G1 X107.617 Y37.367 E.31484
G1 X113.753 Y38.45 E.31453
G1 X119.446 Y40.129 E.29961
G1 X125.044 Y42.484 E.30657
G1 X130.595 Y45.605 E.32146
G1 X135.957 Y49.553 E.33612
G1 X140.173 Y53.477 E.29074
G1 X144.112 Y58.066 E.30528
G1 X147.886 Y63.718 E.34306
G1 X150.609 Y69.105 E.3047
G1 X152.736 Y74.912 E.31218
G1 X154.112 Y80.629 E.29683
G1 X154.844 Y86.608 E.30407
G1 X154.844 Y93.393 E.3425
G1 X154.111 Y99.373 E.30412
G1 X152.735 Y105.09 E.29683
G1 X150.608 Y110.897 E.31218
G1 X147.886 Y116.284 E.30467
G1 X144.111 Y121.936 E.34309
G1 X140.173 Y126.525 E.30525
G1 X135.842 Y130.548 E.29839
G1 X130.594 Y134.396 E.3285
G1 X125.043 Y137.517 E.32146
G1 X119.303 Y139.919 E.3141
G1 X113.467 Y141.618 E.30682
G1 X107.764 Y142.612 E.29222
G1 X101.315 Y143.007 E.32615
G1 X54.485 Y143.007 E2.36393
G1 X53.016 Y142.553 E.07761
G1 X35.334 Y130.485 E1.08064
G1 X34.783 Y129.997 E.03715
G1 X34.019 Y128.153 E.10076
G1 X34.019 Y49.34 E3.97839
G1 X34.783 Y47.496 E.10076
G1 X35.494 Y46.925 E.04603
M204 P1250
G1 E-2.24 F4200
;WIPE_START
G1 F7200
G1 X35.564 Y46.868 E-.05003
G1 X37.008 Y46.087 E-.90997
;WIPE_END
G1 Z.4 F720
G1 X51.946 Y46.925 F9000
G1 Z.2 F720
G1 E3.2 F2400
M204 P800
G1 F1200
G1 X51.946 Y44.328 E.13109
G1 X52.12 Y43.373 E.049
G1 X52.502 Y42.453 E.05028
G1 X53.08 Y41.637 E.05048
G1 X53.796 Y40.965 E.04957
G1 X54.565 Y40.495 E.04549
G1 X55.353 Y40.196 E.04254
G1 X56.193 Y40.051 E.04303
G1 X101.341 Y40.048 E2.27902
G1 X107.152 Y40.388 E.29383
G1 X112.876 Y41.382 E.29327
G1 X118.584 Y43.064 E.30038
G1 X124.089 Y45.414 E.30215
G1 X129.089 Y48.269 E.29064
G1 X133.751 Y51.687 E.29181
G1 X138.042 Y55.668 E.29547
G1 X141.95 Y60.264 E.30453
G1 X145.155 Y65.091 E.29248
G1 X147.749 Y70.19 E.28878
G1 X149.737 Y75.549 E.28853
G1 X151.124 Y81.275 E.2974
G1 X151.819 Y87.133 E.29778
G1 X151.815 Y92.945 E.29338
G1 X151.132 Y98.684 E.29174
G1 X149.771 Y104.34 E.29366
G1 X147.767 Y109.769 E.29212
G1 X145.178 Y114.872 E.28885
G1 X141.766 Y119.98 E.31008
G1 X137.966 Y124.413 E.29474
G1 X133.668 Y128.382 E.29532
G1 X128.97 Y131.809 E.29354
G1 X123.896 Y134.682 E.29434
G1 X118.455 Y136.982 E.29819
G1 X112.912 Y138.61 E.29162
G1 X107.223 Y139.604 E.29152
G1 X101.359 Y139.952 E.29653
G1 X56.229 Y139.953 E2.27811
G1 X55.355 Y139.803 E.04476
M73 P0 R141
G1 X54.441 Y139.444 E.04957
G1 X53.694 Y138.954 E.0451
G1 X53.05 Y138.332 E.0452
G1 X52.504 Y137.55 E.04814
G1 X52.127 Y136.654 E.04907
G1 X51.945 Y135.668 E.05061
G1 X51.946 Y47.015 E4.4751
M204 P1250
G1 X52.553 Y47.015 F9000
M204 P800
G1 F1200
G1 X52.553 Y44.357 E.13417
G1 X52.711 Y43.518 E.0431
G1 X53.047 Y42.721 E.04366
G1 X53.52 Y42.056 E.04119
G1 X54.144 Y41.463 E.04345
G1 X54.808 Y41.052 E.03942
G1 X55.541 Y40.774 E.03957
G1 X56.218 Y40.658 E.03467
G1 X101.315 Y40.655 E2.27645
G1 X107.065 Y40.99 E.29075
G1 X112.722 Y41.969 E.2898
G1 X118.362 Y43.63 E.29679
G1 X123.803 Y45.95 E.29858
G1 X128.745 Y48.769 E.2872
G1 X133.351 Y52.144 E.28824
G1 X137.592 Y56.075 E.2919
G1 X141.454 Y60.615 E.30088
G1 X144.622 Y65.382 E.28892
G1 X147.186 Y70.418 E.28526
G1 X149.161 Y75.743 E.28669
G1 X150.523 Y81.365 E.292
G1 X151.214 Y87.187 E.29595
G1 X151.208 Y92.926 E.2897
G1 X150.531 Y98.594 E.28815
G1 X149.195 Y104.147 E.28831
G1 X147.218 Y109.51 E.28853
G1 X144.644 Y114.581 E.28707
G1 X142.043 Y118.504 E.2376
G1 X141.294 Y119.597 E.06688
G1 X137.541 Y123.979 E.29124
G1 X133.296 Y127.902 E.29177
G1 X128.655 Y131.289 E.29003
G1 X123.644 Y134.13 E.29077
G1 X118.267 Y136.405 E.29472
G1 X112.791 Y138.015 E.28812
G1 X107.136 Y139.003 E.28978
G1 X101.332 Y139.345 E.29349
G1 X56.257 Y139.346 E2.27534
G1 X55.493 Y139.211 E.03916
G1 X54.697 Y138.893 E.04327
G1 X54.056 Y138.466 E.03888
G1 X53.496 Y137.92 E.03948
G1 X53.023 Y137.233 E.0421
G1 X52.701 Y136.453 E.0426
G1 X52.552 Y135.64 E.04172
G1 X52.553 Y47.105 E4.46915
M204 P1250
G1 X53.16 Y47.105 F9000
M204 P800
G1 F1200
G1 X53.16 Y44.387 E.1372
G1 X53.3 Y43.668 E.03698
G1 X53.591 Y42.992 E.03715
G1 X53.962 Y42.473 E.0322
G1 X54.495 Y41.96 E.03734
G1 X55.056 Y41.607 E.03346
G1 X55.678 Y41.366 E.03367
G1 X56.246 Y41.265 E.02912
G1 X101.288 Y41.261 E2.27367
G1 X106.979 Y41.591 E.28776
G1 X112.567 Y42.557 E.28626
G1 X118.141 Y44.195 E.29327
G1 X123.518 Y46.486 E.29504
G1 X128.4 Y49.27 E.28369
G1 X132.952 Y52.601 E.28473
G1 X137.141 Y56.482 E.28826
G1 X140.959 Y60.966 E.29728
G1 X144.089 Y65.673 E.28534
G1 X146.637 Y70.678 E.2835
G1 X148.586 Y75.937 E.28311
G1 X149.923 Y81.454 E.28655
G1 X150.609 Y87.24 E.29412
G1 X150.603 Y92.872 E.2843
G1 X149.936 Y98.47 E.28458
G1 X148.619 Y103.954 E.2847
G1 X146.669 Y109.251 E.28493
G1 X144.111 Y114.291 E.28531
G1 X140.822 Y119.215 E.29891
G1 X137.115 Y123.545 E.28773
G1 X132.924 Y127.422 E.2882
G1 X128.34 Y130.77 E.28654
G1 X123.391 Y133.577 E.28721
G1 X118.079 Y135.827 E.29121
G1 X112.636 Y137.428 E.2864
G1 X107.049 Y138.402 E.28628
G1 X101.305 Y138.739 E.29045
G1 X56.285 Y138.739 E2.27256
G1 X55.635 Y138.62 E.03336
G1 X54.957 Y138.344 E.03695
G1 X54.422 Y137.98 E.03266
G1 X53.945 Y137.51 E.0338
G1 X53.543 Y136.919 E.03608
G1 X53.291 Y136.308 E.03336
G1 X53.159 Y135.611 E.03581
G1 X53.16 Y47.195 E4.46314
M204 P1250
G1 X53.767 Y47.195 F9000
M73 P1 R141
M204 P800
G1 F1200
G1 X53.767 Y44.419 E.14013
G1 X53.887 Y43.823 E.03069
G1 X54.133 Y43.268 E.03064
G1 X54.85 Y42.453 E.05479
G1 X55.305 Y42.161 E.02729
G1 X55.869 Y41.943 E.03052
G1 X56.826 Y41.868 E.04846
G1 X101.28 Y41.868 E2.24399
G1 X106.893 Y42.192 E.28381
G1 X112.413 Y43.144 E.28276
G1 X117.919 Y44.761 E.28967
G1 X123.233 Y47.022 E.29152
G1 X128.056 Y49.77 E.2802
G1 X132.552 Y53.059 E.2812
G1 X136.691 Y56.89 E.28469
G1 X140.463 Y61.317 E.29359
G1 X143.556 Y65.964 E.28178
G1 X146.088 Y70.937 E.2817
G1 X148.01 Y76.131 E.27956
G1 X149.322 Y81.544 E.28115
G1 X150.004 Y87.294 E.29229
G1 X149.996 Y92.853 E.28061
G1 X149.336 Y98.38 E.28098
G1 X148.043 Y103.761 E.27936
G1 X146.119 Y108.992 E.28135
G1 X143.578 Y114 E.28348
G1 X141.034 Y117.829 E.23206
G1 X140.35 Y118.834 E.06137
G1 X136.69 Y123.112 E.2842
G1 X132.551 Y126.942 E.28466
G1 X128.025 Y130.251 E.28302
G1 X123.137 Y133.025 E.28371
G1 X117.891 Y135.25 E.28765
G1 X112.515 Y136.833 E.28289
G1 X106.961 Y137.801 E.28459
G1 X101.279 Y138.132 E.28731
G1 X56.315 Y138.132 E2.26973
G1 X55.781 Y138.03 E.02744
G1 X55.223 Y137.797 E.03052
G1 X54.396 Y137.103 E.0545
G1 X54.067 Y136.61 E.02992
G1 X53.866 Y136.111 E.02716
G1 X53.766 Y135.583 E.02713
G1 X53.767 Y47.285 E4.45718
M204 P1250
G1 X54.374 Y47.285 F9000
M204 P800
G1 F1200
G1 X54.374 Y44.448 E.14321
G1 X54.456 Y44.038 E.02111
G1 X54.675 Y43.543 E.02732
G1 X55.252 Y42.908 E.04331
G1 X56.057 Y42.521 E.04509
G1 X56.825 Y42.475 E.03884
G1 X101.271 Y42.476 E2.24358
G1 X106.807 Y42.793 E.27991
M73 P1 R140
G1 X112.293 Y43.739 E.28101
G1 X117.731 Y45.338 E.28613
G1 X122.947 Y47.559 E.28617
G1 X127.74 Y50.289 E.27844
G1 X132.179 Y53.538 E.27768
G1 X136.265 Y57.323 E.28115
G1 X139.968 Y61.669 E.28822
G1 X143.024 Y66.256 E.27823
G1 X145.525 Y71.165 E.27811
G1 X147.435 Y76.325 E.27774
G1 X148.728 Y81.669 E.27754
G1 X149.397 Y87.311 E.2868
G1 X149.391 Y92.799 E.27703
G1 X148.741 Y98.256 E.27741
G1 X147.457 Y103.602 E.27753
G1 X145.556 Y108.766 E.27777
G1 X143.045 Y113.709 E.27987
G1 X140.529 Y117.492 E.22934
G1 X139.877 Y118.452 E.05858
G1 X136.264 Y122.679 E.2807
G1 X132.179 Y126.463 E.28108
G1 X127.71 Y129.731 E.27947
G1 X122.884 Y132.473 E.28019
G1 X117.703 Y134.673 E.28413
G1 X112.36 Y136.246 E.28115
G1 X106.875 Y137.2 E.28103
G1 X101.27 Y137.525 E.28341
G1 X56.346 Y137.525 E2.26771
G1 X55.492 Y137.253 E.04524
G1 X54.847 Y136.695 E.04305
G1 X54.615 Y136.349 E.02103
G1 X54.373 Y135.552 E.04205
G1 X54.374 Y47.375 E4.45108
M204 P1250
G1 X54.981 Y47.375 F9000
M204 P800
G1 F1200
G1 X54.981 Y44.478 E.14624
G1 X55.294 Y43.717 E.04154
G1 X55.805 Y43.269 E.0343
G1 X56.373 Y43.082 E.03019
G1 X101.262 Y43.083 E2.26595
G1 X106.754 Y43.398 E.27769
G1 X112.172 Y44.335 E.27755
G1 X117.51 Y45.904 E.28085
G1 X122.662 Y48.095 E.28261
G1 X127.396 Y50.789 E.27495
G1 X131.806 Y54.018 E.27591
G1 X135.839 Y57.756 E.27758
G1 X139.473 Y62.021 E.28284
G1 X142.491 Y66.547 E.2746
G1 X144.976 Y71.424 E.2763
G1 X146.859 Y76.519 E.27419
G1 X148.133 Y81.794 E.27393
G1 X148.79 Y87.329 E.28136
G1 X148.786 Y92.745 E.27339
G1 X148.147 Y98.131 E.27379
G1 X146.871 Y103.443 E.27577
G1 X144.992 Y108.539 E.27417
G1 X142.511 Y113.418 E.2763
G1 X140.024 Y117.155 E.2266
G1 X139.404 Y118.071 E.05583
G1 X135.839 Y122.245 E.27709
G1 X131.806 Y125.983 E.27758
G1 X127.395 Y129.212 E.27595
G1 X122.63 Y131.922 E.27671
G1 X117.515 Y134.095 E.28053
G1 X112.205 Y135.658 E.27941
G1 X106.788 Y136.599 E.27754
G1 X101.261 Y136.918 E.27946
G1 X56.376 Y136.918 E2.26574
G1 X55.613 Y136.603 E.04167
G1 X55.165 Y136.089 E.03442
G1 X54.98 Y135.522 E.03011
G1 X54.981 Y47.465 E4.44502
M204 P1250
G1 X55.588 Y47.465 F9000
M204 P800
G1 F1200
G1 X55.588 Y44.508 E.14927
G1 X55.748 Y44.121 E.02114
G1 X56.07 Y43.816 E.02239
G1 X56.407 Y43.689 E.01818
G1 X56.825 Y43.689 E.0211
G1 X101.254 Y43.69 E2.24273
G1 X106.668 Y43.999 E.27374
G1 X112.051 Y44.93 E.27576
G1 X117.322 Y46.481 E.27735
G1 X122.377 Y48.631 E.27729
G1 X127.08 Y51.308 E.27317
G1 X131.433 Y54.497 E.27239
G1 X135.413 Y58.189 E.27404
G1 X138.978 Y62.372 E.27744
G1 X141.958 Y66.839 E.27106
G1 X144.413 Y71.652 E.27274
G1 X146.273 Y76.679 E.27057
G1 X147.539 Y81.919 E.27212
G1 X148.183 Y87.346 E.27587
G1 X148.179 Y92.727 E.27163
G1 X147.546 Y98.042 E.27019
G1 X146.285 Y103.283 E.27211
G1 X144.429 Y108.312 E.27059
G1 X141.979 Y113.127 E.27271
G1 X139.519 Y116.818 E.22391
G1 X138.931 Y117.69 E.05309
G1 X135.413 Y121.812 E.27355
G1 X131.433 Y125.504 E.27404
G1 X127.079 Y128.693 E.27243
G1 X122.377 Y131.37 E.27312
G1 X117.326 Y133.518 E.27707
G1 X112.05 Y135.071 E.27762
G1 X106.702 Y135.998 E.27399
G1 X101.253 Y136.311 E.27551
G1 X56.406 Y136.311 E2.26383
G1 X56.019 Y136.15 E.02116
G1 X55.714 Y135.829 E.02235
G1 X55.587 Y135.492 E.01818
G1 X55.588 Y47.555 E4.43896
M204 P1250
G1 X56.195 Y47.555 F9000
M204 P800
G1 F1200
G1 X56.195 Y44.598 E.14927
G1 X56.497 Y44.296 E.02156
G1 X101.245 Y44.297 E2.25883
G1 X106.616 Y44.604 E.27156
G1 X111.93 Y45.525 E.27224
G1 X117.1 Y47.047 E.27205
G1 X122.093 Y49.168 E.27384
G1 X126.735 Y51.808 E.26957
G1 X131.06 Y54.976 E.27062
G1 X134.987 Y58.622 E.2705
G1 X138.483 Y62.724 E.27206
G1 X141.443 Y67.161 E.26924
G1 X143.864 Y71.911 E.26912
G1 X145.698 Y76.872 E.26699
G1 X146.945 Y82.044 E.26856
G1 X147.576 Y87.364 E.27043
G1 X147.574 Y92.673 E.26799
G1 X146.945 Y97.952 E.26836
G1 X145.699 Y103.123 E.2685
G1 X143.866 Y108.085 E.26702
G1 X141.446 Y112.835 E.2691
G1 X139.014 Y116.481 E.22123
G1 X138.457 Y117.31 E.05042
G1 X134.987 Y121.38 E.26998
G1 X131.06 Y125.025 E.27046
G1 X126.735 Y128.193 E.27062
G1 X122.092 Y130.833 E.26961
G1 X117.105 Y132.952 E.27352
G1 X111.93 Y134.476 E.27232
G1 X106.615 Y135.396 E.27228
G1 X101.244 Y135.704 E.27157
G1 X56.384 Y135.657 E2.26448
G1 X56.194 Y135.402 E.01605
M73 P1 R139
G1 X56.195 Y47.645 E4.42987
M204 P1250
; printing object bovenste deel hub.stl id:0 copy 0
G1 E-2.24 F4200
M73 P2 R139
;WIPE_START
G1 F7200
G1 X56.195 Y47.555 E-.04988
G1 X56.195 Y45.913 E-.91012
;WIPE_END
G1 Z.4 F720
G1 X45.294 Y64.508 F9000
G1 Z.2 F720
G1 E3.2 F2400
M204 P800
;TYPE:Support material
G1 F1200
G1 X50.308 Y64.508 E.2531
G1 X50.308 Y128.028 E3.20642
G1 X36.93 Y128.028 E.67531
G1 X36.93 Y49.465 E3.96577
G1 X45.294 Y49.465 E.42221
G1 X45.294 Y64.417 E.75476
M204 P1250
G1 X49.528 Y127.754 F9000
M204 P800
G1 F1200
G1 X49.528 Y65.054 E3.16503
G1 X48.854 Y65.054 E.03402
G1 X48.854 Y127.481 E3.15124
G1 X48.179 Y127.481 E.03407
G1 X48.179 Y65.054 E3.15124
G1 X47.504 Y65.054 E.03407
G1 X47.504 Y127.481 E3.15124
G1 X46.83 Y127.481 E.03402
G1 X46.83 Y65.054 E3.15124
G1 X46.155 Y65.054 E.03407
G1 X46.155 Y127.481 E3.15124
G1 X45.481 Y127.481 E.03402
G1 X45.481 Y65.054 E3.15124
G1 X44.806 Y65.054 E.03407
G1 X44.806 Y127.481 E3.15124
G1 X44.132 Y127.481 E.03402
G1 X44.132 Y50.012 E3.91055
G1 X43.457 Y50.012 E.03407
G1 X43.457 Y127.481 E3.91055
G1 X42.783 Y127.481 E.03402
G1 X42.783 Y50.012 E3.91055
G1 X42.108 Y50.012 E.03407
G1 X42.108 Y127.481 E3.91055
G1 X41.434 Y127.481 E.03402
G1 X41.434 Y50.012 E3.91055
G1 X40.759 Y50.012 E.03407
G1 X40.759 Y127.481 E3.91055
G1 X40.085 Y127.481 E.03402
M73 P2 R138
G1 X40.085 Y50.012 E3.91055
G1 X39.41 Y50.012 E.03407
G1 X39.41 Y127.481 E3.91055
G1 X38.736 Y127.481 E.03402
G1 X38.736 Y50.012 E3.91055
G1 X38.061 Y50.012 E.03407
G1 X38.061 Y127.754 E3.92433
M204 P1250
G1 E-2.24 F4200
;WIPE_START
G1 F7200
G1 X38.061 Y126.022 E-.96
;WIPE_END
G1 Z.4 F720
G1 X57.53 Y134.368 F9000
G1 Z.2 F720
G1 E3.2 F2400
M204 P800
;TYPE:Perimeter
;WIDTH:0.649999
G1 F1200
G1 X57.531 Y45.632 E4.47929
G1 X101.217 Y45.632 E2.20522
G1 X106.483 Y45.935 E.26626
G1 X111.646 Y46.831 E.26452
G1 X116.668 Y48.312 E.2643
G1 X121.482 Y50.357 E.26402
G1 X126.021 Y52.938 E.26358
G1 X130.225 Y56.02 E.26313
G1 X134.036 Y59.561 E.2626
G1 X137.404 Y63.514 E.26215
G1 X140.283 Y67.824 E.26164
G1 X142.633 Y72.434 E.2612
G1 X144.425 Y77.281 E.26086
G1 X145.632 Y82.3 E.26058
G1 X146.24 Y87.422 E.26037
G1 X146.24 Y88.616 E.06027
M73 P3 R138
G1 X146.24 Y92.579 E.20005
G1 X145.632 Y97.702 E.26042
G1 X144.424 Y102.72 E.26054
G1 X142.633 Y107.567 E.26084
G1 X140.282 Y112.177 E.26122
G1 X137.403 Y116.488 E.26168
G1 X134.036 Y120.44 E.26208
G1 X130.224 Y123.982 E.26267
G1 X126.02 Y127.064 E.26313
G1 X121.481 Y129.644 E.26355
G1 X116.668 Y131.689 E.26398
G1 X111.645 Y133.17 E.26435
G1 X106.482 Y134.066 E.26452
G1 X101.216 Y134.368 E.26626
G1 X57.62 Y134.368 E2.20067
M204 P1250
G1 X56.923 Y134.975 F9000
M204 P800
;TYPE:External perimeter
G1 F1200
G1 X56.924 Y45.025 E4.54057
G1 X101.234 Y45.025 E2.23672
G1 X106.553 Y45.33 E.26894
G1 X111.784 Y46.239 E.26801
G1 X116.874 Y47.74 E.26788
G1 X121.751 Y49.812 E.26748
G1 X126.352 Y52.427 E.26714
G1 X130.612 Y55.551 E.26666
G1 X134.475 Y59.14 E.26617
G1 X137.889 Y63.147 E.26573
G1 X140.807 Y67.517 E.26525
G1 X143.19 Y72.19 E.26479
G1 X145.007 Y77.104 E.26447
G1 X146.231 Y82.192 E.26416
G1 X146.847 Y87.386 E.26402
G1 X146.847 Y88.616 E.06209
G1 X146.847 Y92.615 E.20186
G1 X146.231 Y97.809 E.26402
G1 X145.006 Y102.897 E.26418
G1 X143.19 Y107.811 E.26445
